%
(1001)
(T1  D=0.0625 CR=0.0984 TAPER=5.5deg - ZMIN=-0.0075 - tapered mill)
G90
G17
G20
G28 G91 Z0
G90

(2D Contour1)
M9
T1 M6
S12000 M3
G54
M7
G0 X0.375 Y11.35
Z0.6
Z0.05
G1 Z0.0394 F10
Z-0.0075
Y11.85 F50
X-0.625
Y10.85
X0.375
Y11.35
G0 Z0.2
X0.625 Y11.1
Z0.05
G1 Z0.0394 F10
Z-0.0075
X0.375 Y10.85 F50
G0 Z0.2
X0.625 Y12
Z0.05
G1 Z0.0394 F10
Z-0.0075
X0.375 Y11.85 F50
G0 Z0.2
X-0.625
Z0.05
G1 Z0.0394 F10
Z-0.0075
X-0.275 Y12 F50
X0.625
Y11.1
G0 Z0.6
M9
G28 G91 Z0
G90
G28 G91 X0 Y0
G90
M30
%
