%
(1001)
(T1  D=0.0625 CR=0.0984 TAPER=5.5deg - ZMIN=-0.0075 - tapered mill)
G90
G17
G20
G28 G91 Z0
G90

(Trace1 2)
M9
T1 M6
S12000 M3
G54
M7
G0 X-1.2644 Y10.6092
Z0.6
Z0.1975
G1 Z-0.0105 F50
X-1.242 Y10.6111
X-1.2419 Y10.6102
X-1.2416 Y10.6082
X-1.2414 Y10.6072
X-1.2413 Y10.6063
X-1.2409 Y10.6044
X-1.2407 Y10.6034
X-1.2404 Y10.6025
X-1.2402 Y10.6015
X-1.2399 Y10.6006
X-1.2397 Y10.5997
X-1.2393 Y10.5988
X-1.239 Y10.5979
X-1.2386 Y10.597
X-1.2382 Y10.5961
X-1.2374 Y10.5943
X-1.2365 Y10.5926
X-1.2356 Y10.5908
X-1.2351 Y10.59
X-1.2346 Y10.5891
X-1.2334 Y10.5876
X-1.2328 Y10.5869
X-1.2321 Y10.5862
X-1.2315 Y10.5854
X-1.2309 Y10.5847
X-1.2302 Y10.5841
X-1.2295 Y10.5833
X-1.2288 Y10.5827
X-1.2281 Y10.5821
X-1.2274 Y10.5815
X-1.2267 Y10.5809
X-1.2259 Y10.5803
X-1.2251 Y10.5798
X-1.2243 Y10.5793
X-1.2235 Y10.5787
X-1.2218 Y10.5778
X-1.2201 Y10.5769
X-1.2193 Y10.5765
X-1.2184 Y10.5761
X-1.2166 Y10.5752
X-1.2111 Y10.5732
X-1.2089 Y10.5725
X-1.2066 Y10.5719
X-1.2043 Y10.5713
X-1.2032 Y10.5711
X-1.202 Y10.5709
X-1.1997 Y10.5706
X-1.1962 Y10.5702
X-1.1939 Y10.5701
X-1.1915 Y10.57
X-1.1904 Y10.5699
X-1.1892
X-1.1841 Y10.5701
X-1.1831 Y10.5702
X-1.1821
X-1.181 Y10.5703
X-1.178 Y10.5706
X-1.177 Y10.5708
X-1.174 Y10.5714
X-1.1721 Y10.5719
X-1.1701 Y10.5724
X-1.1691 Y10.5727
X-1.1682 Y10.573
X-1.1662 Y10.5736
X-1.1653 Y10.5739
X-1.1645 Y10.5743
X-1.163 Y10.5749
X-1.1616 Y10.5756
X-1.1608 Y10.5759
X-1.1601 Y10.5763
X-1.1594 Y10.5767
X-1.158 Y10.5774
X-1.1567 Y10.5783
X-1.1561 Y10.5788
X-1.1548 Y10.5798
X-1.1543 Y10.5803
X-1.1531 Y10.5814
X-1.1525 Y10.582
X-1.152 Y10.5826
X-1.1514 Y10.5832
X-1.1509 Y10.5838
X-1.1498 Y10.585
X-1.1487 Y10.5867
X-1.148 Y10.5879
X-1.1477 Y10.5885
X-1.1471 Y10.5897
X-1.1465 Y10.5909
X-1.1463 Y10.5916
X-1.146 Y10.5922
X-1.1458 Y10.5929
X-1.1457 Y10.5935
X-1.1455 Y10.5942
X-1.1454 Y10.5948
X-1.1453 Y10.5955
X-1.1452 Y10.5962
X-1.145 Y10.5975
X-1.1449 Y10.5989
X-1.1447 Y10.6003
X-1.1448 Y10.6016
X-1.145 Y10.603
X-1.1451 Y10.6043
X-1.1452 Y10.6049
X-1.1453 Y10.6056
X-1.1454 Y10.6062
X-1.1456 Y10.6068
X-1.1457 Y10.6074
X-1.1459 Y10.6081
X-1.1461 Y10.6087
X-1.1464 Y10.6093
X-1.1466 Y10.6099
X-1.1472 Y10.611
X-1.1475 Y10.6116
X-1.1482 Y10.6128
X-1.1489 Y10.6139
X-1.1493 Y10.6144
X-1.1496 Y10.615
X-1.1502 Y10.6156
X-1.1508 Y10.6161
X-1.1514 Y10.6167
X-1.1525 Y10.6178
X-1.1537 Y10.6189
X-1.1544 Y10.6194
X-1.155 Y10.62
X-1.1563 Y10.6209
X-1.157 Y10.6213
X-1.1576 Y10.6218
X-1.159 Y10.6226
X-1.1598 Y10.6229
X-1.1605 Y10.6233
X-1.1612 Y10.6236
X-1.162 Y10.624
X-1.1657 Y10.6256
X-1.1671 Y10.626
X-1.1684 Y10.6264
X-1.1697 Y10.6268
X-1.171 Y10.6272
X-1.1723 Y10.6276
X-1.1789 Y10.6296
X-1.1856 Y10.6314
X-1.1869 Y10.6317
X-1.1882 Y10.632
X-1.1922 Y10.633
X-1.1936 Y10.6333
X-1.1976 Y10.6343
X-1.205 Y10.6361
X-1.2064 Y10.6365
X-1.2079 Y10.6368
X-1.2094 Y10.6372
X-1.2108 Y10.6376
X-1.2123 Y10.638
X-1.2137 Y10.6385
X-1.2152 Y10.6389
X-1.2166 Y10.6394
X-1.2181 Y10.6398
X-1.2209 Y10.6409
X-1.2252 Y10.6425
X-1.2266 Y10.6431
X-1.228 Y10.6437
X-1.2321 Y10.6454
X-1.2359 Y10.6476
X-1.2377 Y10.6487
X-1.2395 Y10.6499
X-1.2403 Y10.6506
X-1.2412 Y10.6512
X-1.242 Y10.6519
X-1.2428 Y10.6525
X-1.2436 Y10.6532
X-1.2444 Y10.6539
X-1.2451 Y10.6547
X-1.2458 Y10.6555
X-1.2466 Y10.6563
X-1.2473 Y10.657
X-1.2486 Y10.6587
X-1.2493 Y10.6596
X-1.2499 Y10.6604
X-1.2513 Y10.6621
X-1.2526 Y10.6647
X-1.2531 Y10.6656
X-1.2539 Y10.6674
X-1.2547 Y10.6691
X-1.2551 Y10.67
X-1.2554 Y10.6709
X-1.2557 Y10.6719
X-1.256 Y10.6728
X-1.2563 Y10.6737
X-1.2565 Y10.6747
X-1.2566 Y10.6756
X-1.2568 Y10.6766
X-1.257 Y10.6775
X-1.2571 Y10.6785
X-1.2572 Y10.6795
X-1.2573 Y10.6805
X-1.2574 Y10.6824
X-1.2575 Y10.6844
X-1.2574 Y10.6867
X-1.2572 Y10.6889
X-1.2571 Y10.69
X-1.2569 Y10.6911
X-1.2568 Y10.6922
X-1.2566 Y10.6933
X-1.2564 Y10.6944
X-1.2561 Y10.6955
X-1.2559 Y10.6966
X-1.2556 Y10.6976
X-1.2552 Y10.6987
X-1.2549 Y10.6997
X-1.2545 Y10.7007
X-1.254 Y10.7018
X-1.2531 Y10.7038
X-1.252 Y10.7058
X-1.251 Y10.7078
X-1.2499 Y10.7097
X-1.2491 Y10.7107
X-1.2483 Y10.7117
X-1.2468 Y10.7135
X-1.246 Y10.7145
X-1.2452 Y10.7154
X-1.2444 Y10.7163
X-1.2436 Y10.7172
X-1.2427 Y10.718
X-1.2418 Y10.7188
X-1.2409 Y10.7196
X-1.24 Y10.7204
X-1.2391 Y10.7211
X-1.2381 Y10.7218
X-1.2371 Y10.7225
X-1.2361 Y10.7231
X-1.2339 Y10.7243
X-1.2329 Y10.7249
X-1.2307 Y10.726
X-1.2285 Y10.7271
X-1.2274 Y10.7276
X-1.2261 Y10.7281
X-1.2247 Y10.7285
X-1.2234 Y10.729
X-1.2207 Y10.7298
X-1.2194 Y10.7302
X-1.2181 Y10.7307
X-1.2154 Y10.7314
X-1.2126 Y10.732
X-1.2113 Y10.7323
X-1.2099 Y10.7325
X-1.2085 Y10.7327
X-1.2044 Y10.7332
X-1.203 Y10.7333
X-1.2016 Y10.7334
X-1.1988 Y10.7335
X-1.1974 Y10.7336
X-1.196 Y10.7337
X-1.1946
X-1.193
X-1.1915 Y10.7336
X-1.19 Y10.7335
X-1.1856 Y10.7333
X-1.1826 Y10.7331
X-1.1811 Y10.7329
X-1.1781 Y10.7325
X-1.1752 Y10.732
X-1.1723 Y10.7313
X-1.1694 Y10.7306
X-1.1666 Y10.7297
X-1.1609 Y10.7278
X-1.1595 Y10.7273
X-1.1583 Y10.7267
X-1.1572 Y10.7261
X-1.156 Y10.7256
X-1.1537 Y10.7244
X-1.1515 Y10.7232
X-1.1504 Y10.7225
X-1.1494 Y10.7219
X-1.1483 Y10.7211
X-1.1473 Y10.7204
X-1.1463 Y10.7196
X-1.1454 Y10.7188
X-1.1444 Y10.718
X-1.1435 Y10.7171
X-1.1426 Y10.7162
X-1.1418 Y10.7153
X-1.1409 Y10.7144
X-1.1401 Y10.7134
X-1.1393 Y10.7124
X-1.1385 Y10.7115
X-1.1377 Y10.7104
X-1.1369 Y10.7094
X-1.1361 Y10.7084
X-1.1355 Y10.7073
X-1.1349 Y10.7063
X-1.1337 Y10.7041
X-1.1325 Y10.7018
X-1.132 Y10.7007
X-1.1315 Y10.6996
X-1.131 Y10.6984
X-1.1305 Y10.6973
X-1.1301 Y10.6961
X-1.1297 Y10.695
X-1.1294 Y10.6938
X-1.1291 Y10.6926
X-1.1288 Y10.6914
X-1.1286 Y10.6902
X-1.1283 Y10.6889
X-1.1281 Y10.6877
X-1.128 Y10.6865
X-1.1278 Y10.6852
X-1.1275 Y10.6828
X-1.1273 Y10.6802
X-1.15 Y10.6785
X-1.1504 Y10.681
X-1.1508 Y10.6834
X-1.1511 Y10.6846
X-1.1514 Y10.6858
X-1.1516 Y10.687
X-1.152 Y10.6881
X-1.1523 Y10.6893
X-1.1527 Y10.6904
X-1.1531 Y10.6915
X-1.1536 Y10.6926
X-1.1541 Y10.6937
X-1.1547 Y10.6947
X-1.1554 Y10.6957
X-1.156 Y10.6967
X-1.1567 Y10.6977
X-1.1575 Y10.6987
X-1.1583 Y10.6996
X-1.1591 Y10.7005
X-1.1599 Y10.7015
X-1.1607 Y10.7024
X-1.1624 Y10.7042
X-1.1648 Y10.7056
X-1.1684 Y10.7076
X-1.1696 Y10.7082
X-1.1708 Y10.7088
X-1.1733 Y10.7099
X-1.1746 Y10.7104
X-1.1772 Y10.7112
X-1.1785 Y10.7115
X-1.1812 Y10.712
X-1.1825 Y10.7122
X-1.1839 Y10.7123
X-1.1866 Y10.7126
X-1.1894 Y10.7127
X-1.1936 Y10.7128
X-1.195
X-1.1964
X-1.1991 Y10.7127
X-1.2032 Y10.7125
X-1.2059 Y10.7122
X-1.2073 Y10.712
X-1.2086 Y10.7117
X-1.2099 Y10.7115
X-1.2112 Y10.7111
X-1.2125 Y10.7107
X-1.2138 Y10.7103
X-1.2151 Y10.7098
X-1.2163 Y10.7093
X-1.2176 Y10.7088
X-1.2188 Y10.7082
X-1.2225 Y10.7063
X-1.2249 Y10.705
X-1.2256 Y10.7043
X-1.2263 Y10.7037
X-1.2269 Y10.703
X-1.2276 Y10.7024
X-1.2283 Y10.7017
X-1.2289 Y10.701
X-1.2295 Y10.7003
X-1.2301 Y10.6996
X-1.2306 Y10.6989
X-1.2312 Y10.6981
X-1.2316 Y10.6974
X-1.2321 Y10.6966
X-1.2325 Y10.6958
X-1.2328 Y10.695
X-1.2331 Y10.6942
X-1.2334 Y10.6933
X-1.2336 Y10.6924
X-1.2338 Y10.6915
X-1.234 Y10.6906
X-1.2342 Y10.6897
X-1.2343 Y10.6888
X-1.2346 Y10.6869
X-1.2347 Y10.686
X-1.2346 Y10.6844
X-1.2345 Y10.6837
X-1.2343 Y10.6822
X-1.2342 Y10.6815
X-1.2341 Y10.6807
X-1.2339 Y10.68
X-1.2337 Y10.6793
X-1.2335 Y10.6786
X-1.2333 Y10.6779
X-1.233 Y10.6772
X-1.2327 Y10.6766
X-1.2324 Y10.676
X-1.232 Y10.6754
X-1.2316 Y10.6747
X-1.2312 Y10.6741
X-1.2307 Y10.6735
X-1.2303 Y10.673
X-1.2298 Y10.6724
X-1.2293 Y10.6718
X-1.2288 Y10.6712
X-1.2278 Y10.6701
X-1.225 Y10.6685
X-1.2208 Y10.6663
X-1.2193 Y10.6656
X-1.2165 Y10.6643
X-1.2136 Y10.6631
X-1.2106 Y10.662
X-1.2076 Y10.661
X-1.206 Y10.6606
X-1.2014 Y10.6594
X-1.1952 Y10.658
X-1.192 Y10.6574
X-1.1904 Y10.657
X-1.1887 Y10.6566
X-1.1786 Y10.6543
X-1.1736 Y10.653
X-1.1687 Y10.6515
X-1.1654 Y10.6505
X-1.1605 Y10.6489
X-1.1589 Y10.6483
X-1.1573 Y10.6477
X-1.1524 Y10.6459
X-1.1513 Y10.6454
X-1.1502 Y10.6448
X-1.1491 Y10.6442
X-1.148 Y10.6437
X-1.1469 Y10.643
X-1.1458 Y10.6424
X-1.1437 Y10.6412
X-1.1426 Y10.6405
X-1.1416 Y10.6398
X-1.1406 Y10.6391
X-1.1396 Y10.6384
X-1.1387 Y10.6376
X-1.1377 Y10.6368
X-1.1368 Y10.636
X-1.136 Y10.6351
X-1.1351 Y10.6343
X-1.1342 Y10.6333
X-1.1334 Y10.6324
X-1.1326 Y10.6315
X-1.131 Y10.6296
X-1.1302 Y10.6287
X-1.1294 Y10.6277
X-1.1283 Y10.6257
X-1.1277 Y10.6247
X-1.1272 Y10.6237
X-1.1262 Y10.6217
X-1.1257 Y10.6207
X-1.1252 Y10.6197
X-1.1248 Y10.6187
X-1.1244 Y10.6176
X-1.124 Y10.6166
X-1.1237 Y10.6156
X-1.1234 Y10.6145
X-1.1232 Y10.6134
X-1.1229 Y10.6123
X-1.1228 Y10.6112
X-1.1226 Y10.6101
X-1.1225 Y10.609
X-1.1223 Y10.6079
X-1.1222 Y10.6068
X-1.1221 Y10.6056
X-1.122 Y10.6034
X-1.1219 Y10.6022
X-1.1221 Y10.5998
X-1.1222 Y10.5987
X-1.1224 Y10.5963
X-1.1226 Y10.5951
X-1.1228 Y10.5939
X-1.1229 Y10.5928
X-1.1232 Y10.5916
X-1.1234 Y10.5904
X-1.1237 Y10.5893
X-1.124 Y10.5882
X-1.1244 Y10.587
X-1.1248 Y10.5859
X-1.1252 Y10.5849
X-1.1257 Y10.5838
X-1.1262 Y10.5827
X-1.1267 Y10.5817
X-1.1272 Y10.5806
X-1.1278 Y10.5795
X-1.1289 Y10.5774
X-1.1295 Y10.5764
X-1.1301 Y10.5753
X-1.1317 Y10.5733
X-1.1333 Y10.5712
X-1.1341 Y10.5702
X-1.135 Y10.5692
X-1.1358 Y10.5683
X-1.1367 Y10.5673
X-1.1376 Y10.5664
X-1.1385 Y10.5655
X-1.1394 Y10.5646
X-1.1404 Y10.5638
X-1.1414 Y10.563
X-1.1424 Y10.5622
X-1.1435 Y10.5615
X-1.1446 Y10.5608
X-1.1456 Y10.5601
X-1.1467 Y10.5594
X-1.149 Y10.5581
X-1.1524 Y10.5563
X-1.1536 Y10.5557
X-1.155 Y10.5552
X-1.1564 Y10.5546
X-1.1592 Y10.5536
X-1.1606 Y10.5531
X-1.1619 Y10.5526
X-1.1662 Y10.5513
X-1.169 Y10.5506
X-1.1705 Y10.5503
X-1.1719 Y10.55
X-1.1733 Y10.5498
X-1.1748 Y10.5496
X-1.1777 Y10.5493
X-1.1807 Y10.549
X-1.1866 Y10.5487
X-1.1881
X-1.1933 Y10.5488
X-1.1985 Y10.549
X-1.2002 Y10.5491
X-1.2037 Y10.5494
X-1.2054 Y10.5496
X-1.2088 Y10.5501
X-1.2105 Y10.5504
X-1.2122 Y10.5508
X-1.2155 Y10.5516
X-1.2189 Y10.5525
X-1.2238 Y10.5541
X-1.2288 Y10.5557
X-1.2313 Y10.557
X-1.2326 Y10.5577
X-1.2339 Y10.5583
X-1.2351 Y10.5591
X-1.2363 Y10.5597
X-1.2375 Y10.5604
X-1.2387 Y10.5612
X-1.2399 Y10.562
X-1.2411 Y10.5628
X-1.2422 Y10.5636
X-1.2433 Y10.5644
X-1.2443 Y10.5654
X-1.2454 Y10.5663
X-1.2464 Y10.5673
X-1.2473 Y10.5683
X-1.2483 Y10.5693
X-1.2492 Y10.5704
X-1.2501 Y10.5715
X-1.2519 Y10.5737
X-1.2528 Y10.5748
X-1.2545 Y10.577
X-1.2552 Y10.5783
X-1.2559 Y10.5795
X-1.2573 Y10.582
X-1.2579 Y10.5833
X-1.2586 Y10.5846
X-1.2592 Y10.5859
X-1.2598 Y10.5872
X-1.2603 Y10.5885
X-1.2608 Y10.5898
X-1.2613 Y10.5911
X-1.2617 Y10.5924
X-1.2621 Y10.5937
X-1.2625 Y10.5951
X-1.2628 Y10.5965
X-1.263 Y10.5979
X-1.2633 Y10.5993
X-1.2635 Y10.6007
X-1.2637 Y10.6021
X-1.2638 Y10.6035
X-1.264 Y10.6049
X-1.2642 Y10.6078
X-1.2644 Y10.6092
Z0.1975
G0 Z0.2
X-1.1057 Y10.6813
Z0.1975
G1 Z-0.0075 F50
X-1.0825
X-1.0547 Y10.6037
X-1.0543 Y10.6026
X-1.0539 Y10.6015
X-1.0535 Y10.6005
X-1.0532 Y10.5994
X-1.0528 Y10.5983
X-1.0524 Y10.5972
X-1.0521 Y10.5961
X-1.0513 Y10.594
X-1.051 Y10.5929
X-1.0506 Y10.5918
X-1.0503 Y10.5907
X-1.0499 Y10.5896
X-1.0489 Y10.5863
X-1.0486 Y10.5853
X-1.0473 Y10.5809
X-1.0464 Y10.5776
X-1.0457 Y10.5796
X-1.0454 Y10.5807
X-1.0451 Y10.5817
X-1.0445 Y10.5838
X-1.0441 Y10.5848
X-1.0435 Y10.5869
X-1.0428 Y10.5889
X-1.0425 Y10.59
X-1.0421 Y10.591
X-1.0414 Y10.5931
X-1.0411 Y10.5941
X-1.04 Y10.5971
X-1.0385 Y10.6012
X-1.0382 Y10.6022
X-1.0094 Y10.6813
X-0.9868
X-1.0359 Y10.5517
X-1.0564
X-1.1057 Y10.6813
Z0.1975
G0 Z0.2
X-0.9705 Y10.5871
Z0.1975
G1 Z-0.0075 F50
X-0.9712 Y10.5891
X-0.9718 Y10.5912
X-0.9723 Y10.5933
X-0.9728 Y10.5955
X-0.9732 Y10.5976
X-0.9735 Y10.5998
X-0.9738 Y10.602
X-0.974 Y10.6042
X-0.9742 Y10.6064
X-0.9743 Y10.6087
X-0.9745 Y10.6109
X-0.9746 Y10.6131
X-0.9747 Y10.6154
X-0.9745 Y10.6201
X-0.9744 Y10.6224
X-0.9742 Y10.6247
X-0.974 Y10.627
X-0.9738 Y10.6293
X-0.9735 Y10.6315
X-0.9732 Y10.6338
X-0.9728 Y10.636
X-0.9723 Y10.6382
X-0.9718 Y10.6404
X-0.9712 Y10.6425
X-0.9704 Y10.6446
X-0.9696 Y10.6467
X-0.9687 Y10.6487
X-0.9677 Y10.6507
X-0.9666 Y10.6528
X-0.9655 Y10.6547
X-0.9643 Y10.6567
X-0.9631 Y10.6586
X-0.9618 Y10.6605
X-0.9605 Y10.6624
X-0.9592 Y10.6643
X-0.9579 Y10.6662
X-0.9547 Y10.6689
X-0.9515 Y10.6715
X-0.9499 Y10.6728
X-0.9483 Y10.674
X-0.9467 Y10.6752
X-0.945 Y10.6763
X-0.9433 Y10.6773
X-0.9416 Y10.6783
X-0.9398 Y10.6792
X-0.938 Y10.68
X-0.9361 Y10.6807
X-0.9343 Y10.6813
X-0.9324 Y10.6818
X-0.9304 Y10.6822
X-0.9284 Y10.6826
X-0.9264 Y10.683
X-0.9244 Y10.6833
X-0.9203 Y10.6837
X-0.9183 Y10.6839
X-0.9142 Y10.6843
X-0.9101 Y10.6839
X-0.9081 Y10.6837
X-0.9042 Y10.6833
X-0.9022 Y10.683
X-0.9003 Y10.6827
X-0.8983 Y10.6823
X-0.8965 Y10.6818
X-0.8946 Y10.6813
X-0.8928 Y10.6807
X-0.891 Y10.68
X-0.8892 Y10.6793
X-0.8875 Y10.6784
X-0.8858 Y10.6774
X-0.8842 Y10.6764
X-0.8826 Y10.6753
X-0.881 Y10.6742
X-0.8794 Y10.673
X-0.8763 Y10.6705
X-0.8732 Y10.6679
X-0.8717 Y10.6666
X-0.8704 Y10.6647
X-0.8678 Y10.661
X-0.8666 Y10.6591
X-0.8654 Y10.6572
X-0.8642 Y10.6553
X-0.8631 Y10.6533
X-0.862 Y10.6514
X-0.8611 Y10.6494
X-0.8602 Y10.6474
X-0.8594 Y10.6454
X-0.8587 Y10.6433
X-0.858 Y10.6412
X-0.8575 Y10.6391
X-0.8571 Y10.6369
X-0.8567 Y10.6348
X-0.8564 Y10.6326
X-0.8561 Y10.6304
X-0.8559 Y10.6281
X-0.8557 Y10.6259
X-0.8555 Y10.6236
X-0.8554 Y10.6213
X-0.8553 Y10.6191
X-0.8552 Y10.6168
Y10.6143
X-0.8553 Y10.6119
Y10.6109
X-0.952
X-0.9517 Y10.6079
X-0.9515 Y10.6064
X-0.9514 Y10.6049
X-0.9512 Y10.6034
X-0.9509 Y10.602
X-0.9507 Y10.6005
X-0.9504 Y10.5991
X-0.9501 Y10.5976
X-0.9497 Y10.5962
X-0.9493 Y10.5948
X-0.9489 Y10.5934
X-0.9484 Y10.592
X-0.9478 Y10.5907
X-0.9472 Y10.5894
X-0.9465 Y10.5881
X-0.9458 Y10.5869
X-0.945 Y10.5856
X-0.9434 Y10.5831
X-0.9425 Y10.5819
X-0.9417 Y10.5806
X-0.9399 Y10.5782
X-0.937 Y10.5757
X-0.936 Y10.5749
X-0.935 Y10.5741
X-0.934 Y10.5733
X-0.933 Y10.5726
X-0.9319 Y10.5719
X-0.9309 Y10.5713
X-0.9298 Y10.5707
X-0.9287 Y10.5701
X-0.9276 Y10.5696
X-0.9264 Y10.5692
X-0.9253 Y10.5688
X-0.9229 Y10.5681
X-0.9204 Y10.5677
X-0.9192 Y10.5675
X-0.9179 Y10.5673
X-0.9128 Y10.5669
X-0.9119
X-0.911 Y10.567
X-0.91
X-0.9082 Y10.5672
X-0.9055 Y10.5675
X-0.9046 Y10.5677
X-0.9028 Y10.5681
X-0.902 Y10.5683
X-0.9011 Y10.5686
X-0.9003 Y10.5689
X-0.8986 Y10.5696
X-0.8978 Y10.57
X-0.8954 Y10.5713
X-0.8922 Y10.5732
X-0.8899 Y10.5753
X-0.8892 Y10.5761
X-0.8885 Y10.5768
X-0.8878 Y10.5775
X-0.8871 Y10.5783
X-0.8864 Y10.5791
X-0.8857 Y10.5798
X-0.8851 Y10.5806
X-0.8845 Y10.5815
X-0.8839 Y10.5823
X-0.8834 Y10.5832
X-0.8824 Y10.5849
X-0.8819 Y10.5858
X-0.8815 Y10.5868
X-0.8806 Y10.5886
X-0.8798 Y10.5906
X-0.8794 Y10.5915
X-0.8786 Y10.5935
X-0.8559 Y10.5906
X-0.8569 Y10.5876
X-0.8575 Y10.5861
X-0.8585 Y10.5832
X-0.8591 Y10.5818
X-0.8597 Y10.5803
X-0.8603 Y10.5789
X-0.861 Y10.5775
X-0.8617 Y10.5761
X-0.8625 Y10.5748
X-0.8633 Y10.5735
X-0.8641 Y10.5722
X-0.865 Y10.571
X-0.866 Y10.5698
X-0.8669 Y10.5686
X-0.868 Y10.5674
X-0.869 Y10.5663
X-0.8701 Y10.5652
X-0.8712 Y10.5641
X-0.8724 Y10.563
X-0.8735 Y10.5619
X-0.8758 Y10.5598
X-0.8773 Y10.5589
X-0.8815 Y10.5564
X-0.883 Y10.5556
X-0.8859 Y10.5541
X-0.8874 Y10.5534
X-0.8889 Y10.5528
X-0.8904 Y10.5522
X-0.8919 Y10.5517
X-0.8934 Y10.5512
X-0.895 Y10.5508
X-0.8966 Y10.5504
X-0.8982 Y10.5501
X-0.8998 Y10.5498
X-0.9014 Y10.5496
X-0.9063 Y10.5491
X-0.908 Y10.549
X-0.9129 Y10.5488
X-0.9151 Y10.5489
X-0.9193 Y10.5492
X-0.9214 Y10.5494
X-0.9255 Y10.5499
X-0.9276 Y10.5502
X-0.9296 Y10.5506
X-0.9316 Y10.551
X-0.9336 Y10.5515
X-0.9355 Y10.5521
X-0.9374 Y10.5528
X-0.9393 Y10.5535
X-0.9411 Y10.5544
X-0.9429 Y10.5553
X-0.9447 Y10.5563
X-0.9464 Y10.5574
X-0.9481 Y10.5586
X-0.9498 Y10.5598
X-0.9515 Y10.561
X-0.9548 Y10.5636
X-0.958 Y10.5663
X-0.9594 Y10.5681
X-0.9619 Y10.5718
X-0.9632 Y10.5736
X-0.9644 Y10.5755
X-0.9656 Y10.5774
X-0.9667 Y10.5793
X-0.9678 Y10.5812
X-0.9687 Y10.5832
X-0.9696 Y10.5851
X-0.9705 Y10.5871
Z0.1975
G0 Z0.2
X-0.8784 Y10.629
Z0.1975
G1 Z-0.0075 F50
X-0.8786 Y10.6312
X-0.8788 Y10.6323
X-0.8791 Y10.6344
X-0.8792 Y10.6356
X-0.8794 Y10.6366
X-0.8796 Y10.6377
X-0.8799 Y10.6387
X-0.8801 Y10.6398
X-0.8804 Y10.6409
X-0.8807 Y10.6419
X-0.8811 Y10.6429
X-0.8814 Y10.6439
X-0.8819 Y10.6449
X-0.8823 Y10.6459
X-0.8828 Y10.6469
X-0.8833 Y10.6478
X-0.8844 Y10.6498
X-0.885 Y10.6507
X-0.8855 Y10.6516
X-0.8867 Y10.6535
X-0.8876 Y10.6544
X-0.8895 Y10.6563
X-0.8905 Y10.6572
X-0.8925 Y10.6589
X-0.8935 Y10.6597
X-0.8945 Y10.6605
X-0.8955 Y10.6612
X-0.8966 Y10.6619
X-0.8977 Y10.6625
X-0.8988 Y10.6631
X-0.9 Y10.6635
X-0.9011 Y10.664
X-0.9023 Y10.6644
X-0.9036 Y10.6647
X-0.9061 Y10.6652
X-0.9087 Y10.6656
X-0.9113 Y10.6659
X-0.9126 Y10.6661
X-0.9139 Y10.6662
X-0.9198 Y10.6656
X-0.9233 Y10.665
X-0.9255 Y10.6645
X-0.9266 Y10.6641
X-0.9277 Y10.6637
X-0.9287 Y10.6633
X-0.9298 Y10.6628
X-0.9308 Y10.6622
X-0.9328 Y10.6611
X-0.9347 Y10.6597
X-0.9366 Y10.6583
X-0.9394 Y10.6561
X-0.941 Y10.6541
X-0.9417 Y10.6531
X-0.9425 Y10.6521
X-0.9433 Y10.6511
X-0.944 Y10.6501
X-0.9454 Y10.648
X-0.946 Y10.6469
X-0.9466 Y10.6458
X-0.9471 Y10.6448
X-0.9476 Y10.6436
X-0.9481 Y10.6425
X-0.9485 Y10.6413
X-0.9488 Y10.6401
X-0.9491 Y10.6389
X-0.9494 Y10.6377
X-0.9497 Y10.6365
X-0.9499 Y10.6353
X-0.9501 Y10.634
X-0.9503 Y10.6328
X-0.9506 Y10.6302
X-0.9508 Y10.629
X-0.8784
Z0.1975
G0 Z0.2
X-0.8283 Y10.6295
Z0.1975
G1 Z-0.0075 F50
Y10.6813
X-0.8086
Y10.6629
X-0.8058 Y10.6661
X-0.8045 Y10.6676
X-0.8031 Y10.6691
X-0.8017 Y10.6706
X-0.8002 Y10.672
X-0.7988 Y10.6734
X-0.7973 Y10.6747
X-0.7957 Y10.6759
X-0.7941 Y10.6771
X-0.7925 Y10.6781
X-0.7908 Y10.6791
X-0.7891 Y10.6799
X-0.7873 Y10.6806
X-0.7854 Y10.6813
X-0.7835 Y10.6818
X-0.7816 Y10.6823
X-0.7796 Y10.6827
X-0.7776 Y10.683
X-0.7756 Y10.6833
X-0.7735 Y10.6836
X-0.7715 Y10.6839
X-0.7673 Y10.6843
X-0.7627 Y10.6841
X-0.7609 Y10.6839
X-0.7599 Y10.6838
X-0.759 Y10.6837
X-0.7581 Y10.6836
X-0.7563 Y10.6833
X-0.7545 Y10.6829
X-0.7519 Y10.6822
X-0.751 Y10.6819
X-0.7501 Y10.6816
X-0.7492 Y10.6813
X-0.7458 Y10.68
X-0.7451 Y10.6797
X-0.7443 Y10.6794
X-0.7436 Y10.6791
X-0.7416 Y10.678
X-0.7402 Y10.6772
X-0.7389 Y10.6764
X-0.7383 Y10.676
X-0.7376 Y10.6756
X-0.737 Y10.6751
X-0.7364 Y10.6746
X-0.7353 Y10.6736
X-0.7347 Y10.673
X-0.7336 Y10.6719
X-0.7331 Y10.6713
X-0.7326 Y10.6708
X-0.7311 Y10.669
X-0.7299 Y10.6671
X-0.7295 Y10.6665
X-0.7291 Y10.6658
X-0.7284 Y10.6646
X-0.7277 Y10.6633
X-0.7274 Y10.6626
X-0.7271 Y10.6619
X-0.7268 Y10.6613
X-0.7265 Y10.6606
X-0.7262 Y10.6599
X-0.7258 Y10.6585
X-0.7253 Y10.6571
X-0.7249 Y10.6557
X-0.7244 Y10.6535
X-0.7242 Y10.6528
X-0.7239 Y10.6501
X-0.7237 Y10.6483
X-0.7235 Y10.6466
X-0.7233 Y10.6448
X-0.7232 Y10.643
X-0.7231 Y10.6412
Y10.6404
X-0.723 Y10.6385
Y10.6377
Y10.635
Y10.5517
X-0.745
Y10.6306
Y10.6331
Y10.6348
Y10.6357
X-0.7451 Y10.6365
Y10.6374
X-0.7452 Y10.6382
Y10.6391
X-0.7453 Y10.6399
X-0.7454 Y10.6407
X-0.7455 Y10.6415
X-0.7456 Y10.6424
X-0.7458 Y10.6432
X-0.7459 Y10.6441
X-0.7463 Y10.6457
X-0.7467 Y10.6474
X-0.7471 Y10.649
X-0.7473 Y10.6498
X-0.7475 Y10.6506
X-0.7481 Y10.6517
X-0.7483 Y10.6522
X-0.7486 Y10.6528
X-0.7489 Y10.6533
X-0.7495 Y10.6543
X-0.7498 Y10.6548
X-0.7501 Y10.6553
X-0.7504 Y10.6558
X-0.7508 Y10.6563
X-0.7512 Y10.6567
X-0.7516 Y10.6572
X-0.752 Y10.6576
X-0.7524 Y10.658
X-0.7528 Y10.6584
X-0.7533 Y10.6587
X-0.7537 Y10.6591
X-0.7547 Y10.6598
X-0.7566 Y10.6613
X-0.7572 Y10.6616
X-0.7578 Y10.6619
X-0.7584 Y10.6622
X-0.7609 Y10.6633
X-0.7621 Y10.6637
X-0.7634 Y10.6641
X-0.7653 Y10.6646
X-0.7659 Y10.6647
X-0.7686 Y10.665
X-0.7719 Y10.6652
X-0.7731 Y10.6651
X-0.7753 Y10.665
X-0.7764 Y10.6648
X-0.7775 Y10.6647
X-0.7786 Y10.6646
X-0.7818 Y10.664
X-0.7828 Y10.6637
X-0.7839 Y10.6634
X-0.7849 Y10.663
X-0.7859 Y10.6626
X-0.7869 Y10.6622
X-0.7879 Y10.6617
X-0.7888 Y10.6612
X-0.7907 Y10.6601
X-0.7916 Y10.6595
X-0.7944 Y10.6576
X-0.7962 Y10.6563
X-0.7971 Y10.6551
X-0.7979 Y10.6538
X-0.7988 Y10.6526
X-0.7996 Y10.6513
X-0.8005 Y10.65
X-0.8012 Y10.6487
X-0.802 Y10.6474
X-0.8026 Y10.6461
X-0.8033 Y10.6448
X-0.8038 Y10.6434
X-0.8043 Y10.642
X-0.8047 Y10.6406
X-0.8051 Y10.6391
X-0.8054 Y10.6377
X-0.8056 Y10.6362
X-0.8058 Y10.6348
X-0.806 Y10.6332
X-0.8061 Y10.6317
X-0.8062 Y10.6302
X-0.8063 Y10.6287
Y10.6271
Y10.6256
X-0.8064 Y10.6225
Y10.5517
X-0.8283
Y10.6295
Z0.1975
G0 Z0.2
X-0.7009 Y10.5517
Z0.1975
G1 Z-0.0075 F50
Y10.5695
X-0.6184 Y10.6643
X-0.6194 Y10.6642
X-0.6204 Y10.6641
X-0.6246 Y10.664
X-0.6256 Y10.6639
X-0.6297 Y10.6637
X-0.6308
X-0.6328
X-0.6339
X-0.6349 Y10.6636
X-0.6359
X-0.637
X-0.638
X-0.639 Y10.6635
X-0.6421
X-0.6432
X-0.696
Y10.6813
X-0.5901
Y10.6668
X-0.6602 Y10.5845
X-0.6738 Y10.5695
X-0.6692 Y10.5698
X-0.668 Y10.5699
X-0.6646 Y10.5701
X-0.6634 Y10.5702
X-0.6623
X-0.6542 Y10.5705
X-0.653
X-0.6519 Y10.5706
X-0.6507
X-0.6496
X-0.6472
X-0.6461
X-0.5862
Y10.5517
X-0.7009
Z0.1975
G0 Z0.2
X-0.548 Y10.6036
Z0.1975
G1 Z-0.0075 F50
X-0.5776 Y10.6813
X-0.5544
X-0.5266 Y10.6037
X-0.5262 Y10.6026
X-0.5258 Y10.6015
X-0.5255 Y10.6005
X-0.5251 Y10.5994
X-0.5247 Y10.5983
X-0.5243 Y10.5972
X-0.524 Y10.5961
X-0.5236 Y10.595
X-0.5233 Y10.594
X-0.5229 Y10.5929
X-0.5225 Y10.5918
X-0.5222 Y10.5907
X-0.5219 Y10.5896
X-0.5205 Y10.5853
X-0.5196 Y10.582
X-0.5183 Y10.5776
X-0.518 Y10.5786
X-0.5173 Y10.5807
X-0.517 Y10.5817
X-0.5164 Y10.5838
X-0.5161 Y10.5848
X-0.5151 Y10.5879
X-0.5144 Y10.59
X-0.5141 Y10.591
X-0.513 Y10.5941
X-0.5126 Y10.5951
X-0.5112 Y10.5992
X-0.5101 Y10.6022
X-0.4813 Y10.6813
X-0.4587
X-0.5078 Y10.5517
X-0.5283
X-0.548 Y10.6036
Z0.1975
G0 Z0.2
X-0.4451 Y10.5747
Z0.1975
G1 Z-0.0075 F50
X-0.4454 Y10.5759
X-0.4457 Y10.5771
X-0.4459 Y10.5783
X-0.4461 Y10.5796
X-0.4462 Y10.5808
X-0.4464 Y10.5821
X-0.4465 Y10.5833
X-0.4467 Y10.5859
X-0.4466 Y10.5881
Y10.5889
X-0.4465 Y10.5897
X-0.4464 Y10.5904
X-0.4463 Y10.5912
Y10.5919
X-0.4461 Y10.5927
X-0.446 Y10.5934
X-0.4459 Y10.5941
X-0.4457 Y10.5948
X-0.4455 Y10.5956
X-0.4453 Y10.5963
X-0.4451 Y10.597
X-0.4448 Y10.5977
X-0.4445 Y10.5984
X-0.4443 Y10.5991
X-0.444 Y10.5998
X-0.4434 Y10.6012
X-0.4431 Y10.6019
X-0.4427 Y10.6026
X-0.4424 Y10.6033
X-0.442 Y10.6039
X-0.4417 Y10.6045
X-0.4413 Y10.6051
X-0.4405 Y10.6063
X-0.4397 Y10.6075
X-0.4393 Y10.6081
X-0.4388 Y10.6086
X-0.4384 Y10.6092
X-0.438 Y10.6097
X-0.4375 Y10.6103
X-0.437 Y10.6108
X-0.4365 Y10.6113
X-0.436 Y10.6118
X-0.435 Y10.6128
X-0.4344 Y10.6132
X-0.4339 Y10.6137
X-0.4333 Y10.6141
X-0.4328 Y10.6146
X-0.4322 Y10.615
X-0.4311 Y10.6159
X-0.4304 Y10.6163
X-0.4298 Y10.6167
X-0.4286 Y10.6174
X-0.426 Y10.6189
X-0.4254 Y10.6192
X-0.4235 Y10.6202
X-0.4228 Y10.6204
X-0.4221 Y10.6207
X-0.4215 Y10.621
X-0.4208 Y10.6213
X-0.4201 Y10.6215
X-0.4194 Y10.6218
X-0.4187 Y10.622
X-0.418 Y10.6222
X-0.4166 Y10.6227
X-0.4159 Y10.6229
X-0.4153 Y10.6231
X-0.4144 Y10.6233
X-0.4136 Y10.6235
X-0.4128 Y10.6237
X-0.4112 Y10.624
X-0.4104 Y10.6242
X-0.4072 Y10.6248
X-0.4064 Y10.6249
X-0.4055 Y10.6251
X-0.3998 Y10.6259
X-0.399 Y10.626
X-0.3974 Y10.6262
X-0.3965 Y10.6263
X-0.3957 Y10.6264
X-0.3891 Y10.6272
X-0.3858 Y10.6277
X-0.3841 Y10.6279
X-0.3825 Y10.6281
X-0.3809 Y10.6284
X-0.3759 Y10.6292
X-0.3743 Y10.6295
X-0.3694 Y10.6306
X-0.3662 Y10.6314
X-0.3646 Y10.6318
X-0.363 Y10.6322
X-0.3598 Y10.6331
X-0.3581 Y10.6335
X-0.3565 Y10.634
Y10.6373
X-0.3564 Y10.6397
X-0.3565 Y10.6415
Y10.6423
Y10.6432
X-0.3566 Y10.6441
Y10.6449
X-0.3567 Y10.6458
X-0.3568 Y10.6466
X-0.357 Y10.6474
X-0.3571 Y10.6483
X-0.3573 Y10.6491
X-0.3575 Y10.6499
X-0.3578 Y10.6507
X-0.3581 Y10.6515
X-0.3584 Y10.6522
X-0.3588 Y10.653
X-0.3592 Y10.6537
X-0.3597 Y10.6544
X-0.3601 Y10.6551
X-0.3606 Y10.6558
X-0.3611 Y10.6565
X-0.3621 Y10.658
X-0.3626 Y10.6586
X-0.3636 Y10.6593
X-0.3665 Y10.661
X-0.3684 Y10.6621
X-0.3694 Y10.6626
X-0.3704 Y10.6631
X-0.3714 Y10.6635
X-0.3734 Y10.6643
X-0.3744 Y10.6646
X-0.3766 Y10.6651
X-0.3787 Y10.6655
X-0.3809 Y10.6657
X-0.3832 Y10.6659
X-0.3843
X-0.3854 Y10.666
X-0.3865 Y10.6661
X-0.3897
X-0.3937 Y10.6659
X-0.3947 Y10.6658
X-0.3957 Y10.6657
X-0.3967 Y10.6656
X-0.3986 Y10.6653
X-0.3996 Y10.6651
X-0.4015 Y10.6646
X-0.4033 Y10.664
X-0.4042 Y10.6637
X-0.4061 Y10.6629
X-0.4088 Y10.6616
X-0.4106 Y10.6606
X-0.4119 Y10.6593
X-0.4125 Y10.6586
X-0.4132 Y10.6579
X-0.4138 Y10.6572
X-0.4144 Y10.6565
X-0.415 Y10.6558
X-0.4156 Y10.6551
X-0.4162 Y10.6543
X-0.4167 Y10.6536
X-0.4172 Y10.6528
X-0.4176 Y10.652
X-0.4181 Y10.6512
X-0.4185 Y10.6504
X-0.4188 Y10.6495
X-0.4192 Y10.6486
X-0.4195 Y10.6478
X-0.4198 Y10.6469
X-0.4201 Y10.646
X-0.4207 Y10.6442
X-0.421 Y10.6433
X-0.4215 Y10.6414
X-0.443 Y10.6444
X-0.4422 Y10.6473
X-0.442 Y10.6483
X-0.4417 Y10.6493
X-0.4411 Y10.6513
X-0.4405 Y10.6532
X-0.4402 Y10.6542
X-0.4398 Y10.6551
X-0.4394 Y10.6561
X-0.439 Y10.657
X-0.4386 Y10.6579
X-0.4376 Y10.6597
X-0.4371 Y10.6606
X-0.4366 Y10.6615
X-0.4356 Y10.6632
X-0.4344 Y10.6649
X-0.4339 Y10.6658
X-0.4333 Y10.6666
X-0.4326 Y10.6674
X-0.4305 Y10.6695
X-0.4291 Y10.6708
X-0.4284 Y10.6715
X-0.4277 Y10.6722
X-0.4269 Y10.6728
X-0.4261 Y10.6734
X-0.4254 Y10.674
X-0.4245 Y10.6745
X-0.4237 Y10.675
X-0.4229 Y10.6756
X-0.4212 Y10.6765
X-0.4194 Y10.6774
X-0.4167 Y10.6785
X-0.4148 Y10.6793
X-0.4139 Y10.6797
X-0.4103 Y10.6807
X-0.4091 Y10.6811
X-0.4079 Y10.6814
X-0.4067 Y10.6817
X-0.4055 Y10.682
X-0.4043 Y10.6823
X-0.4031 Y10.6826
X-0.4006 Y10.6831
X-0.3994 Y10.6833
X-0.3969 Y10.6836
X-0.3945 Y10.6838
X-0.3907 Y10.6841
X-0.3895
X-0.3882 Y10.6842
X-0.3857 Y10.6843
X-0.3833
X-0.3822 Y10.6842
X-0.3811
X-0.3776 Y10.6841
X-0.3731 Y10.6838
X-0.3719 Y10.6836
X-0.3708 Y10.6835
X-0.3697 Y10.6833
X-0.3686 Y10.6831
X-0.3652 Y10.6824
X-0.3619 Y10.6816
X-0.3575 Y10.6804
X-0.3568 Y10.6801
X-0.3561 Y10.6798
X-0.3554 Y10.6795
X-0.3533 Y10.6785
X-0.3519 Y10.6779
X-0.3505 Y10.6772
X-0.3492 Y10.6764
X-0.3486 Y10.676
X-0.348 Y10.6756
X-0.3468 Y10.6746
X-0.3456 Y10.6737
X-0.3445 Y10.6727
X-0.3439 Y10.6721
X-0.3434 Y10.6716
X-0.3428 Y10.6711
X-0.3423 Y10.6706
X-0.3419 Y10.67
X-0.3415 Y10.6694
X-0.3407 Y10.6682
X-0.3403 Y10.6677
X-0.3399 Y10.6671
X-0.3396 Y10.6665
X-0.3392 Y10.6659
X-0.3389 Y10.6653
X-0.3385 Y10.6647
X-0.3382 Y10.6641
X-0.3379 Y10.6635
X-0.3377 Y10.6628
X-0.3374 Y10.6622
X-0.3372 Y10.6616
X-0.3367 Y10.6603
X-0.3365 Y10.6596
X-0.3361 Y10.6583
X-0.3356 Y10.6563
X-0.3354 Y10.6556
X-0.3351 Y10.6531
X-0.3348 Y10.6506
X-0.3347 Y10.6489
X-0.3346 Y10.6472
X-0.3345 Y10.6463
X-0.3344 Y10.6446
Y10.643
X-0.3343 Y10.6413
Y10.6387
Y10.606
X-0.3344 Y10.5996
Y10.5963
X-0.3343 Y10.5931
Y10.5898
X-0.3342 Y10.5882
Y10.5866
Y10.585
X-0.3341 Y10.5834
X-0.334 Y10.5818
X-0.3339 Y10.5802
X-0.3338 Y10.5785
X-0.3337 Y10.5769
X-0.3335 Y10.5737
X-0.3331 Y10.5689
X-0.3329 Y10.5672
X-0.3325 Y10.5652
X-0.3322 Y10.5639
X-0.3318 Y10.5626
X-0.3316 Y10.5619
X-0.3314 Y10.5612
X-0.3312 Y10.5606
X-0.331 Y10.5599
X-0.3306 Y10.5586
X-0.3303 Y10.558
X-0.3301 Y10.5573
X-0.3298 Y10.5567
X-0.3292 Y10.5554
X-0.3286 Y10.5542
X-0.3283 Y10.5535
X-0.328 Y10.553
X-0.3274 Y10.5517
X-0.3503
X-0.3506 Y10.5523
X-0.3509 Y10.553
X-0.3514 Y10.5543
X-0.3517 Y10.5549
X-0.3519 Y10.5556
X-0.3524 Y10.5569
X-0.3526 Y10.5575
X-0.353 Y10.5588
X-0.3532 Y10.5595
X-0.3534 Y10.5602
X-0.3536 Y10.5608
X-0.3537 Y10.5615
X-0.354 Y10.5629
X-0.3541 Y10.5635
X-0.3543 Y10.5649
X-0.3545 Y10.5663
X-0.3547 Y10.5677
X-0.3556 Y10.567
X-0.3565 Y10.5662
X-0.3574 Y10.5655
X-0.3583 Y10.5648
X-0.3611 Y10.5626
X-0.363 Y10.5613
X-0.3639 Y10.5606
X-0.3658 Y10.5594
X-0.3668 Y10.5587
X-0.3678 Y10.5582
X-0.3688 Y10.5576
X-0.3698 Y10.557
X-0.3709 Y10.5565
X-0.3719 Y10.556
X-0.3729 Y10.5555
X-0.374 Y10.555
X-0.375 Y10.5545
X-0.3771 Y10.5535
X-0.3782 Y10.553
X-0.3812 Y10.5521
X-0.3821 Y10.5518
X-0.3831 Y10.5515
X-0.3861 Y10.5507
X-0.3881 Y10.5502
X-0.3901 Y10.5498
X-0.3922 Y10.5495
X-0.3942 Y10.5493
X-0.3983 Y10.5489
X-0.4024 Y10.5488
X-0.4039
X-0.4084 Y10.5491
X-0.4113 Y10.5493
X-0.4142 Y10.5497
X-0.4157 Y10.5499
X-0.4171 Y10.5502
X-0.4185 Y10.5505
X-0.4199 Y10.5509
X-0.4213 Y10.5513
X-0.4226 Y10.5519
X-0.4252 Y10.553
X-0.4265 Y10.5537
X-0.4278 Y10.5544
X-0.4291 Y10.5552
X-0.4316 Y10.5567
X-0.4353 Y10.5592
X-0.437 Y10.5611
X-0.4378 Y10.5621
X-0.4386 Y10.563
X-0.4394 Y10.564
X-0.4402 Y10.565
X-0.4409 Y10.566
X-0.4416 Y10.567
X-0.4423 Y10.568
X-0.4429 Y10.5691
X-0.4434 Y10.5702
X-0.444 Y10.5713
X-0.4444 Y10.5724
X-0.4448 Y10.5735
X-0.4451 Y10.5747
Z0.1975
G0 Z0.2
X-0.3661 Y10.578
Z0.1975
G1 Z-0.0075 F50
X-0.3655 Y10.5786
X-0.365 Y10.5793
X-0.3644 Y10.58
X-0.3639 Y10.5807
X-0.3634 Y10.5814
X-0.3629 Y10.5822
X-0.3624 Y10.5829
X-0.3619 Y10.5837
X-0.3615 Y10.5844
X-0.361 Y10.5852
X-0.3605 Y10.5859
X-0.3601 Y10.5867
X-0.3598 Y10.5876
X-0.3595 Y10.5885
X-0.3589 Y10.5903
X-0.3586 Y10.5912
X-0.3584 Y10.5921
X-0.3581 Y10.593
X-0.3579 Y10.5939
X-0.3577 Y10.5948
X-0.3575 Y10.5957
X-0.3573 Y10.5966
X-0.3572 Y10.5975
X-0.357 Y10.5984
X-0.3569 Y10.5994
X-0.3568 Y10.6003
Y10.6012
X-0.3567 Y10.6021
Y10.6031
X-0.3566 Y10.604
Y10.6059
X-0.3565 Y10.6087
Y10.6168
X-0.358 Y10.6163
X-0.3595 Y10.6158
X-0.3609 Y10.6153
X-0.3624 Y10.6149
X-0.3653 Y10.6139
X-0.3668 Y10.6135
X-0.3683 Y10.6131
X-0.3698 Y10.6127
X-0.3713 Y10.6123
X-0.3727 Y10.6119
X-0.3742 Y10.6116
X-0.3757 Y10.6113
X-0.3772 Y10.6109
X-0.3818 Y10.6101
X-0.3833 Y10.6099
X-0.3848 Y10.6096
X-0.3894 Y10.6089
X-0.3909 Y10.6087
X-0.3924 Y10.6085
X-0.3965 Y10.6079
X-0.3973 Y10.6077
X-0.3981 Y10.6076
X-0.3989 Y10.6074
X-0.3997 Y10.6073
X-0.4013 Y10.607
X-0.4021 Y10.6068
X-0.4029 Y10.6067
X-0.4045 Y10.6063
X-0.4053 Y10.606
X-0.4061 Y10.6058
X-0.4077 Y10.6054
X-0.4085 Y10.6051
X-0.4092 Y10.6048
X-0.41 Y10.6046
X-0.4108 Y10.6043
X-0.4116 Y10.6041
X-0.412 Y10.6039
X-0.4124 Y10.6036
X-0.4129 Y10.6034
X-0.4141 Y10.6027
X-0.4149 Y10.6022
X-0.4153 Y10.602
X-0.4157 Y10.6017
X-0.4161 Y10.6014
X-0.4165 Y10.6011
X-0.4168 Y10.6008
X-0.4175 Y10.6002
X-0.4178 Y10.5999
X-0.4182 Y10.5995
X-0.4188 Y10.5988
X-0.4191 Y10.5984
X-0.4194 Y10.5981
X-0.4197 Y10.5977
X-0.42 Y10.5973
X-0.4203 Y10.5969
X-0.4205 Y10.5965
X-0.4207 Y10.5961
X-0.4211 Y10.5953
X-0.4214 Y10.5949
X-0.4216 Y10.5945
X-0.4221 Y10.5932
X-0.4223 Y10.5928
X-0.4224 Y10.5924
X-0.4226 Y10.5919
X-0.4227 Y10.5915
X-0.4228 Y10.5911
X-0.4229 Y10.5906
X-0.423 Y10.5902
Y10.5897
X-0.4231 Y10.5888
X-0.4232 Y10.5879
X-0.4233 Y10.5865
X-0.4231 Y10.5844
X-0.4229 Y10.583
X-0.4228 Y10.5823
X-0.4227 Y10.5817
X-0.4225 Y10.581
X-0.4223 Y10.5803
X-0.4221 Y10.5796
X-0.4219 Y10.579
X-0.4216 Y10.5784
X-0.4213 Y10.5778
X-0.421 Y10.5772
X-0.4207 Y10.5767
X-0.4203 Y10.5761
X-0.4199 Y10.5756
X-0.4195 Y10.575
X-0.419 Y10.5744
X-0.4186 Y10.5739
X-0.4181 Y10.5734
X-0.4167 Y10.5719
X-0.4144 Y10.5704
X-0.4137 Y10.57
X-0.4129 Y10.5695
X-0.4107 Y10.5683
X-0.4099 Y10.568
X-0.4091 Y10.5677
X-0.4075 Y10.5671
X-0.4058 Y10.5667
X-0.405 Y10.5666
X-0.4033 Y10.5663
X-0.4016 Y10.5662
X-0.3972 Y10.566
X-0.3962
X-0.3952 Y10.5661
X-0.3942
X-0.3903 Y10.5665
X-0.3893 Y10.5666
X-0.3874 Y10.5669
X-0.3855 Y10.5673
X-0.3846 Y10.5675
X-0.3837 Y10.5678
X-0.3818 Y10.5684
X-0.3791 Y10.5695
X-0.3782 Y10.5699
X-0.3773 Y10.5703
X-0.3755 Y10.5711
X-0.3746 Y10.5715
X-0.3739 Y10.572
X-0.3731 Y10.5725
X-0.3724 Y10.573
X-0.3716 Y10.5735
X-0.3709 Y10.574
X-0.3702 Y10.5746
X-0.3694 Y10.5751
X-0.3687 Y10.5756
X-0.3681 Y10.5762
X-0.3674 Y10.5768
X-0.3668 Y10.5774
X-0.3661 Y10.578
Z0.1975
G0 Z0.2
X-0.2276 Y10.6114
Z0.1975
G1 Z-0.0075 F50
Y10.7307
X-0.1483
X-0.1467 Y10.7306
X-0.1452
X-0.1437
X-0.1421
X-0.139 Y10.7305
X-0.136 Y10.7304
X-0.1314 Y10.73
X-0.1284 Y10.7296
X-0.1253 Y10.7291
X-0.1208 Y10.7282
X-0.1193 Y10.7278
X-0.1179 Y10.7274
X-0.1134 Y10.7263
X-0.1119 Y10.7258
X-0.1109 Y10.7254
X-0.1079 Y10.7238
X-0.1069 Y10.7233
X-0.1059 Y10.7228
X-0.105 Y10.7222
X-0.104 Y10.7216
X-0.1031 Y10.721
X-0.1022 Y10.7204
X-0.1014 Y10.7197
X-0.1005 Y10.719
X-0.0997 Y10.7183
X-0.0989 Y10.7175
X-0.0982 Y10.7167
X-0.0974 Y10.7159
X-0.0967 Y10.7151
X-0.096 Y10.7142
X-0.0953 Y10.7133
X-0.094 Y10.7115
X-0.092 Y10.7088
X-0.0909 Y10.7067
X-0.0904 Y10.7056
X-0.0899 Y10.7046
X-0.0893 Y10.7035
X-0.0888 Y10.7024
X-0.0879 Y10.7003
X-0.0875 Y10.6992
X-0.0871 Y10.6981
X-0.0867 Y10.697
X-0.0864 Y10.6958
X-0.0861 Y10.6947
X-0.0859 Y10.6936
X-0.0856 Y10.6924
X-0.0854 Y10.6913
X-0.0853 Y10.6901
X-0.0851 Y10.6889
X-0.085 Y10.6878
X-0.0849 Y10.6866
X-0.0848 Y10.6854
X-0.0846 Y10.683
Y10.6818
X-0.0848 Y10.6789
X-0.0849 Y10.6774
X-0.0851 Y10.6759
X-0.0853 Y10.6744
X-0.0855 Y10.673
X-0.0857 Y10.6715
X-0.086 Y10.6701
X-0.0863 Y10.6687
X-0.0867 Y10.6673
X-0.0871 Y10.6659
X-0.0875 Y10.6645
X-0.0881 Y10.6632
X-0.0887 Y10.6619
X-0.0894 Y10.6606
X-0.0901 Y10.6594
X-0.0908 Y10.6581
X-0.0916 Y10.6569
X-0.0924 Y10.6557
X-0.0942 Y10.6533
X-0.0951 Y10.6521
X-0.0969 Y10.6497
X-0.1011 Y10.6464
X-0.1039 Y10.6443
X-0.1054 Y10.6433
X-0.1068 Y10.6423
X-0.1083 Y10.6414
X-0.1098 Y10.6405
X-0.1113 Y10.6396
X-0.1129 Y10.6389
X-0.1145 Y10.6382
X-0.1161 Y10.6376
X-0.1177 Y10.637
X-0.1211 Y10.6359
X-0.1228 Y10.6355
X-0.1262 Y10.6347
X-0.1279 Y10.6344
X-0.135 Y10.6331
X-0.1312 Y10.6312
X-0.1306 Y10.6309
X-0.1293 Y10.6302
X-0.1287 Y10.6299
X-0.1281 Y10.6295
X-0.1275 Y10.6291
X-0.1269 Y10.6288
X-0.1252 Y10.6276
X-0.1246 Y10.6272
X-0.124 Y10.6268
X-0.1235 Y10.6264
X-0.1207 Y10.6242
X-0.1189 Y10.6224
X-0.118 Y10.6215
X-0.1171 Y10.6206
X-0.1162 Y10.6196
X-0.1153 Y10.6187
X-0.1135 Y10.6168
X-0.1126 Y10.6159
X-0.1118 Y10.6149
X-0.1109 Y10.6139
X-0.1101 Y10.6129
X-0.1093 Y10.6119
X-0.1085 Y10.6109
X-0.1077 Y10.6099
X-0.107 Y10.6089
X-0.1062 Y10.6078
X-0.1047 Y10.6057
X-0.104 Y10.6047
X-0.1025 Y10.6026
X-0.1018 Y10.6015
X-0.101 Y10.6004
X-0.0699 Y10.5517
X-0.0997
X-0.1241 Y10.59
X-0.1247 Y10.591
X-0.1254 Y10.5921
X-0.1261 Y10.5931
X-0.1275 Y10.5952
X-0.1282 Y10.5963
X-0.1289 Y10.5973
X-0.1303 Y10.5994
X-0.131 Y10.6004
X-0.1324 Y10.6025
X-0.1338 Y10.6045
X-0.1345 Y10.6056
X-0.1353 Y10.6065
X-0.1367 Y10.6086
X-0.1375 Y10.6096
X-0.1382 Y10.6106
X-0.139 Y10.6116
X-0.1397 Y10.6126
X-0.1405 Y10.6136
X-0.1423 Y10.6158
X-0.1436 Y10.6174
X-0.1441 Y10.618
X-0.145 Y10.619
X-0.146 Y10.62
X-0.1465 Y10.6206
X-0.1476 Y10.6215
X-0.1486 Y10.6224
X-0.1492 Y10.6229
X-0.1497 Y10.6233
X-0.1503 Y10.6238
X-0.1525 Y10.6256
X-0.1529 Y10.6258
X-0.1533 Y10.6261
X-0.1538 Y10.6263
X-0.1542 Y10.6266
X-0.1564 Y10.6278
X-0.1568 Y10.628
X-0.1573 Y10.6282
X-0.1586 Y10.6288
X-0.1595 Y10.6291
X-0.16 Y10.6293
X-0.1609 Y10.6296
X-0.1614 Y10.6297
X-0.1624 Y10.63
X-0.1628 Y10.6302
X-0.1633 Y10.6303
X-0.1655 Y10.6306
X-0.166 Y10.6307
X-0.1671 Y10.6308
X-0.1682 Y10.6309
X-0.1688 Y10.631
X-0.1693
X-0.1699
X-0.171 Y10.6311
X-0.1715
X-0.1721
X-0.1737
X-0.1743 Y10.6312
X-0.204
Y10.5517
X-0.2276
Y10.6114
Z0.1975
G0 Z0.2
X-0.204 Y10.6517
Z0.1975
G1 Z-0.0075 F50
X-0.1509
X-0.1498
X-0.1487
X-0.1455 Y10.6519
X-0.1445
X-0.1434 Y10.652
X-0.1423 Y10.6521
X-0.1413 Y10.6522
X-0.1402 Y10.6523
X-0.1381 Y10.6526
X-0.1349 Y10.6532
X-0.1329 Y10.6537
X-0.1277 Y10.655
X-0.127 Y10.6554
X-0.1263 Y10.6556
X-0.1242 Y10.6566
X-0.1229 Y10.6573
X-0.1216 Y10.658
X-0.121 Y10.6584
X-0.1204 Y10.6588
X-0.1198 Y10.6593
X-0.1192 Y10.6597
X-0.1187 Y10.6602
X-0.1181 Y10.6607
X-0.1176 Y10.6612
X-0.1171 Y10.6617
X-0.1161 Y10.6628
X-0.1151 Y10.664
X-0.1137 Y10.6658
X-0.1134 Y10.6664
X-0.1131 Y10.667
X-0.1124 Y10.6683
X-0.1121 Y10.6689
X-0.1114 Y10.6702
X-0.1111 Y10.6708
X-0.1109 Y10.6715
X-0.1106 Y10.6721
X-0.1104 Y10.6728
X-0.1102 Y10.6735
X-0.11 Y10.6741
X-0.1098 Y10.6748
X-0.1097 Y10.6755
X-0.1096 Y10.6762
X-0.1095 Y10.6769
X-0.1094 Y10.6776
X-0.1093 Y10.6783
X-0.1092 Y10.679
X-0.1091 Y10.6804
X-0.109 Y10.6818
X-0.1091 Y10.6828
X-0.1093 Y10.6848
X-0.1094 Y10.6858
X-0.1095 Y10.6868
X-0.1097 Y10.6878
X-0.1099 Y10.6887
X-0.1101 Y10.6897
X-0.1103 Y10.6906
X-0.1106 Y10.6915
X-0.1109 Y10.6924
X-0.1112 Y10.6933
X-0.1117 Y10.6942
X-0.1121 Y10.695
X-0.1126 Y10.6958
X-0.1131 Y10.6966
X-0.1137 Y10.6974
X-0.1143 Y10.6982
X-0.1149 Y10.699
X-0.1155 Y10.6997
X-0.1162 Y10.7005
X-0.1175 Y10.702
X-0.1182 Y10.7027
X-0.1215 Y10.7047
X-0.1249 Y10.7066
X-0.1272 Y10.7077
X-0.1295 Y10.7087
X-0.1307 Y10.7091
X-0.1332 Y10.7097
X-0.1357 Y10.7102
X-0.1382 Y10.7105
X-0.1395 Y10.7106
X-0.1408 Y10.7107
X-0.1421
X-0.1434 Y10.7108
X-0.146 Y10.7109
X-0.204
Y10.6517
Z0.1975
G0 Z0.2
X-0.0571 Y10.6339
Z0.1975
G1 Z-0.0075 F50
X-0.0567 Y10.6363
X-0.0563 Y10.6386
X-0.0557 Y10.641
X-0.0551 Y10.6433
X-0.0543 Y10.6456
X-0.0535 Y10.6478
X-0.0525 Y10.6499
X-0.0514 Y10.652
X-0.0502 Y10.6541
X-0.049 Y10.6562
X-0.0476 Y10.6582
X-0.0462 Y10.6602
X-0.0447 Y10.6621
X-0.0432 Y10.6641
X-0.0416 Y10.666
X-0.04 Y10.668
X-0.0384 Y10.6699
X-0.0338 Y10.6731
X-0.0307 Y10.6751
X-0.0276 Y10.677
X-0.026 Y10.6779
X-0.0244 Y10.6787
X-0.0227 Y10.6795
X-0.0211 Y10.6802
X-0.0194 Y10.6808
X-0.0177 Y10.6814
X-0.0159 Y10.6819
X-0.0124 Y10.6827
X-0.0106 Y10.683
X-0.0069 Y10.6835
X-0.0032 Y10.6839
X-0.0014 Y10.684
X0.0005 Y10.6841
X0.0023 Y10.6843
X0.0065 Y10.6839
X0.0105 Y10.6835
X0.0125 Y10.6833
X0.0146 Y10.683
X0.0165 Y10.6827
X0.0185 Y10.6823
X0.0204 Y10.6819
X0.0224 Y10.6814
X0.0242 Y10.6808
X0.0261 Y10.6801
X0.0279 Y10.6793
X0.0296 Y10.6785
X0.0314 Y10.6776
X0.0331 Y10.6765
X0.0348 Y10.6755
X0.0364 Y10.6743
X0.0381 Y10.6731
X0.0397 Y10.6719
X0.0429 Y10.6694
X0.0445 Y10.6681
X0.046 Y10.6667
X0.0474 Y10.665
X0.0487 Y10.6631
X0.05 Y10.6614
X0.0512 Y10.6596
X0.0525 Y10.6577
X0.0537 Y10.6559
X0.0548 Y10.654
X0.0559 Y10.6521
X0.0569 Y10.6502
X0.0578 Y10.6483
X0.0586 Y10.6463
X0.0593 Y10.6443
X0.06 Y10.6423
X0.0605 Y10.6402
X0.061 Y10.6381
X0.0614 Y10.6359
X0.0617 Y10.6338
X0.062 Y10.6317
X0.0623 Y10.6294
X0.0625 Y10.6272
X0.0626 Y10.625
X0.0628 Y10.6228
X0.0629 Y10.6206
X0.063 Y10.6183
X0.0629 Y10.615
Y10.6133
X0.0628 Y10.6116
Y10.6099
X0.0627 Y10.6082
X0.0626 Y10.6065
X0.0624 Y10.6048
X0.0623 Y10.6031
X0.0621 Y10.6015
X0.0618 Y10.5998
X0.0616 Y10.5982
X0.0613 Y10.5965
X0.0609 Y10.5949
X0.0605 Y10.5933
X0.06 Y10.5917
X0.0596 Y10.5901
X0.059 Y10.5885
X0.0585 Y10.5869
X0.0579 Y10.5853
X0.0567 Y10.5821
X0.0555 Y10.579
X0.0548 Y10.5778
X0.0541 Y10.5767
X0.0534 Y10.5756
X0.0527 Y10.5745
X0.0519 Y10.5734
X0.0512 Y10.5723
X0.0504 Y10.5712
X0.0497 Y10.5702
X0.0488 Y10.5691
X0.048 Y10.5681
X0.0472 Y10.5672
X0.0463 Y10.5662
X0.0453 Y10.5653
X0.0444 Y10.5644
X0.0434 Y10.5635
X0.0424 Y10.5627
X0.0413 Y10.5619
X0.0403 Y10.5611
X0.0392 Y10.5604
X0.037 Y10.5589
X0.0359 Y10.5581
X0.0348 Y10.5574
X0.0337 Y10.5567
X0.0324 Y10.5561
X0.0312 Y10.5556
X0.0299 Y10.555
X0.0274 Y10.5539
X0.0237 Y10.5523
X0.0211 Y10.5515
X0.0198 Y10.5511
X0.0185 Y10.5507
X0.0172 Y10.5504
X0.0132 Y10.5497
X0.0105 Y10.5494
X0.0065 Y10.549
X0.0023 Y10.5488
X-0.0038 Y10.5493
X-0.0059 Y10.5494
X-0.0079 Y10.5497
X-0.0099 Y10.55
X-0.0119 Y10.5503
X-0.0139 Y10.5507
X-0.0159 Y10.5511
X-0.0178 Y10.5516
X-0.0197 Y10.5522
X-0.0215 Y10.5528
X-0.0234 Y10.5536
X-0.0251 Y10.5544
X-0.0269 Y10.5554
X-0.0286 Y10.5564
X-0.0303 Y10.5575
X-0.032 Y10.5586
X-0.0336 Y10.5598
X-0.0352 Y10.5611
X-0.0369 Y10.5623
X-0.0417 Y10.5662
X-0.043 Y10.5681
X-0.0443 Y10.57
X-0.0456 Y10.5719
X-0.0469 Y10.5737
X-0.0481 Y10.5757
X-0.0493 Y10.5776
X-0.0505 Y10.5795
X-0.0515 Y10.5815
X-0.0525 Y10.5835
X-0.0534 Y10.5855
X-0.0543 Y10.5876
X-0.055 Y10.5896
X-0.0556 Y10.5918
X-0.0561 Y10.5939
X-0.0566 Y10.5961
X-0.057 Y10.5983
X-0.0573 Y10.6005
X-0.0576 Y10.6028
X-0.0578 Y10.605
X-0.058 Y10.6073
X-0.0581 Y10.6096
X-0.0582 Y10.6119
X-0.0584 Y10.6165
X-0.0582 Y10.6215
X-0.0581 Y10.624
X-0.0579 Y10.6265
X-0.0577 Y10.629
X-0.0574 Y10.6314
X-0.0571 Y10.6339
Z0.1975
G0 Z0.2
X-0.0359 Y10.6165
Z0.1975
G1 Z-0.0075 F50
X-0.0358 Y10.6131
X-0.0357 Y10.6115
X-0.0356 Y10.6098
X-0.0355 Y10.6081
X-0.0354 Y10.6065
X-0.0352 Y10.6048
X-0.035 Y10.6032
X-0.0348 Y10.6016
X-0.0345 Y10.6
X-0.0342 Y10.5984
X-0.0338 Y10.5968
X-0.0333 Y10.5953
X-0.0328 Y10.5937
X-0.0322 Y10.5922
X-0.0315 Y10.5907
X-0.0308 Y10.5893
X-0.0301 Y10.5878
X-0.0293 Y10.5863
X-0.0285 Y10.5849
X-0.0268 Y10.582
X-0.025 Y10.5792
X-0.024 Y10.5783
X-0.0231 Y10.5774
X-0.0221 Y10.5765
X-0.0201 Y10.5748
X-0.0191 Y10.574
X-0.0181 Y10.5732
X-0.0171 Y10.5724
X-0.016 Y10.5717
X-0.015 Y10.5711
X-0.0139 Y10.5705
X-0.0127 Y10.5699
X-0.0116 Y10.5694
X-0.0104 Y10.569
X-0.0092 Y10.5687
X-0.0067 Y10.568
X-0.0055 Y10.5678
X-0.0029 Y10.5674
X-0.0003 Y10.5671
X0.0023 Y10.5669
X0.0037 Y10.567
X0.005 Y10.5671
X0.0063 Y10.5672
X0.0076 Y10.5674
X0.0089 Y10.5676
X0.0114 Y10.5681
X0.0126 Y10.5683
X0.0138 Y10.5687
X0.015 Y10.5691
X0.0162 Y10.5695
X0.0174 Y10.57
X0.0185 Y10.5705
X0.0196 Y10.5711
X0.0207 Y10.5718
X0.0217 Y10.5725
X0.0227 Y10.5733
X0.0237 Y10.5741
X0.0257 Y10.5757
X0.0267 Y10.5766
X0.0277 Y10.5775
X0.0296 Y10.5793
X0.0305 Y10.5807
X0.0313 Y10.5822
X0.0322 Y10.5836
X0.0331 Y10.5851
X0.0339 Y10.5866
X0.0347 Y10.588
X0.0354 Y10.5895
X0.0362 Y10.591
X0.0368 Y10.5926
X0.0374 Y10.5941
X0.0379 Y10.5956
X0.0384 Y10.5972
X0.0388 Y10.5988
X0.0391 Y10.6004
X0.0394 Y10.6021
X0.0396 Y10.6037
X0.0398 Y10.6054
X0.04 Y10.607
X0.0401 Y10.6087
X0.0402 Y10.6104
X0.0403 Y10.6121
Y10.6138
X0.0404 Y10.6172
X0.0403 Y10.6206
X0.0402 Y10.6222
Y10.6238
X0.0401 Y10.6254
X0.0399 Y10.6271
X0.0398 Y10.6287
X0.0396 Y10.6303
X0.0393 Y10.6319
X0.039 Y10.6334
X0.0387 Y10.635
X0.0383 Y10.6365
X0.0378 Y10.638
X0.0373 Y10.6395
X0.0367 Y10.641
X0.036 Y10.6425
X0.0353 Y10.6439
X0.0346 Y10.6453
X0.0338 Y10.6467
X0.033 Y10.6482
X0.0313 Y10.6509
X0.0295 Y10.6537
X0.0286 Y10.6546
X0.0276 Y10.6555
X0.0266 Y10.6564
X0.0257 Y10.6572
X0.0237 Y10.6589
X0.0227 Y10.6597
X0.0216 Y10.6604
X0.0206 Y10.6611
X0.0195 Y10.6618
X0.0184 Y10.6624
X0.0173 Y10.663
X0.0162 Y10.6634
X0.015 Y10.6639
X0.0138 Y10.6643
X0.0126 Y10.6646
X0.0114 Y10.6648
X0.0088 Y10.6653
X0.0075 Y10.6655
X0.005 Y10.6658
X0.0023 Y10.6661
X-0.0003 Y10.6658
X-0.0029 Y10.6655
X-0.0054 Y10.6651
X-0.0067 Y10.6649
X-0.008 Y10.6646
X-0.0092 Y10.6643
X-0.0116 Y10.6635
X-0.0127 Y10.663
X-0.0138 Y10.6624
X-0.0149 Y10.6619
X-0.016 Y10.6612
X-0.0171 Y10.6605
X-0.0181 Y10.6597
X-0.0191 Y10.6589
X-0.0201 Y10.6582
X-0.0221 Y10.6564
X-0.0231 Y10.6556
X-0.025 Y10.6537
X-0.0268 Y10.6509
X-0.0276 Y10.6495
X-0.0285 Y10.6481
X-0.0293 Y10.6467
X-0.0301 Y10.6452
X-0.0308 Y10.6437
X-0.0316 Y10.6422
X-0.0322 Y10.6408
X-0.0328 Y10.6393
X-0.0333 Y10.6378
X-0.0338 Y10.6362
X-0.0342 Y10.6346
X-0.0345 Y10.633
X-0.0348 Y10.6314
X-0.035 Y10.6298
X-0.0352 Y10.6282
X-0.0354 Y10.6265
X-0.0355 Y10.6249
X-0.0356 Y10.6232
X-0.0357 Y10.6215
X-0.0358 Y10.6199
X-0.0359 Y10.6165
Z0.1975
G0 Z0.2
X0.0887 Y10.6114
Z0.1975
G1 Z-0.0075 F50
Y10.7307
X0.1106
Y10.6668
X0.1131 Y10.6693
X0.1155 Y10.6718
X0.1168 Y10.673
X0.1181 Y10.6741
X0.1194 Y10.6752
X0.1207 Y10.6763
X0.122 Y10.6773
X0.1234 Y10.6782
X0.1248 Y10.6791
X0.1263 Y10.6798
X0.1278 Y10.6805
X0.1293 Y10.6811
X0.1309 Y10.6817
X0.1342 Y10.6825
X0.1358 Y10.6829
X0.1392 Y10.6834
X0.1409 Y10.6837
X0.1427 Y10.6839
X0.1444 Y10.6841
X0.1461 Y10.6843
X0.1481 Y10.6842
X0.1491 Y10.6841
X0.15
X0.153 Y10.6838
X0.1549 Y10.6836
X0.1568 Y10.6833
X0.1587 Y10.6829
X0.1596 Y10.6826
X0.1624 Y10.6818
X0.1642 Y10.6812
X0.1651 Y10.6808
X0.1661 Y10.6805
X0.1688 Y10.6794
X0.1721 Y10.6777
X0.1738 Y10.6768
X0.1746 Y10.6763
X0.1754 Y10.6758
X0.1761 Y10.6754
X0.1769 Y10.6748
X0.1777 Y10.6743
X0.1784 Y10.6737
X0.1791 Y10.6731
X0.1798 Y10.6726
X0.1805 Y10.672
X0.1812 Y10.6713
X0.1819 Y10.6707
X0.1825 Y10.67
X0.1832 Y10.6694
X0.1838 Y10.6687
X0.1845 Y10.668
X0.1851 Y10.6673
X0.1857 Y10.6666
X0.1864 Y10.6659
X0.1875 Y10.6643
X0.1881 Y10.6635
X0.1892 Y10.6618
X0.1897 Y10.661
X0.1903 Y10.6602
X0.1908 Y10.6593
X0.1913 Y10.6585
X0.1918 Y10.6576
X0.1923 Y10.6567
X0.1927 Y10.6559
X0.1936 Y10.6541
X0.194 Y10.6532
X0.1944 Y10.6523
X0.1948 Y10.6514
X0.1955 Y10.6495
X0.1962 Y10.6476
X0.1965 Y10.6467
X0.1972 Y10.6448
X0.1975 Y10.6438
X0.198 Y10.6416
X0.1986 Y10.6394
X0.1991 Y10.6373
X0.1993 Y10.6362
X0.1996 Y10.6351
X0.1998 Y10.634
X0.2 Y10.6329
X0.2001 Y10.6318
X0.2003 Y10.6307
X0.2004 Y10.6296
X0.2005 Y10.6285
X0.2006 Y10.6274
X0.2007 Y10.6263
X0.2009 Y10.6241
Y10.623
X0.201 Y10.6196
X0.2011 Y10.6185
X0.2009 Y10.6138
X0.2008 Y10.6115
X0.2006 Y10.6091
X0.2004 Y10.6068
X0.2002 Y10.6045
X0.1999 Y10.6022
X0.1996 Y10.5999
X0.1993 Y10.5977
X0.1988 Y10.5955
X0.1983 Y10.5933
X0.1977 Y10.5911
X0.197 Y10.5889
X0.1962 Y10.5869
X0.1953 Y10.5848
X0.1943 Y10.5827
X0.1932 Y10.5807
X0.1921 Y10.5787
X0.191 Y10.5767
X0.1897 Y10.5747
X0.1872 Y10.5708
X0.1846 Y10.567
X0.1804 Y10.5631
X0.179 Y10.5618
X0.1775 Y10.5606
X0.1761 Y10.5594
X0.1746 Y10.5583
X0.1731 Y10.5572
X0.1716 Y10.5561
X0.17 Y10.5552
X0.1684 Y10.5543
X0.1668 Y10.5535
X0.1652 Y10.5528
X0.1635 Y10.5521
X0.1617 Y10.5516
X0.1599 Y10.5511
X0.1563 Y10.5503
X0.1545 Y10.55
X0.1507 Y10.5494
X0.1488 Y10.5492
X0.145 Y10.5488
X0.1414 Y10.5492
X0.1396 Y10.5494
X0.1361 Y10.55
X0.1343 Y10.5503
X0.1326 Y10.5507
X0.1309 Y10.5511
X0.1292 Y10.5516
X0.1276 Y10.5522
X0.126 Y10.5528
X0.1245 Y10.5536
X0.123 Y10.5544
X0.1216 Y10.5554
X0.1202 Y10.5564
X0.1189 Y10.5575
X0.1176 Y10.5587
X0.1163 Y10.5599
X0.1151 Y10.5611
X0.1138 Y10.5624
X0.1126 Y10.5638
X0.1102 Y10.5665
X0.109 Y10.568
Y10.5517
X0.0887
Y10.6114
Z0.1975
G0 Z0.2
X0.1246 Y10.573
Z0.1975
G1 Z-0.0075 F50
X0.1257 Y10.5721
X0.1268 Y10.5714
X0.128 Y10.5707
X0.1293 Y10.5701
X0.1305 Y10.5696
X0.1319 Y10.5691
X0.1332 Y10.5687
X0.1346 Y10.5683
X0.136 Y10.568
X0.1388 Y10.5675
X0.1403 Y10.5672
X0.1432 Y10.5669
X0.1469 Y10.5673
X0.1493 Y10.5677
X0.1504 Y10.568
X0.1527 Y10.5685
X0.1539 Y10.5689
X0.155 Y10.5693
X0.156 Y10.5697
X0.1571 Y10.5702
X0.1581 Y10.5707
X0.1591 Y10.5714
X0.1601 Y10.572
X0.161 Y10.5727
X0.162 Y10.5735
X0.1629 Y10.5743
X0.1638 Y10.575
X0.1646 Y10.5759
X0.1664 Y10.5776
X0.1681 Y10.5793
X0.169 Y10.5808
X0.1698 Y10.5822
X0.1707 Y10.5836
X0.1715 Y10.5851
X0.1723 Y10.5865
X0.173 Y10.588
X0.1738 Y10.5894
X0.1745 Y10.5909
X0.1751 Y10.5924
X0.1757 Y10.5939
X0.1762 Y10.5955
X0.1766 Y10.597
X0.177 Y10.5986
X0.1773 Y10.6002
X0.1776 Y10.6018
X0.1778 Y10.6034
X0.178 Y10.605
X0.1782 Y10.6067
X0.1783 Y10.6083
X0.1784 Y10.61
X0.1785 Y10.6116
Y10.6133
X0.1786 Y10.6167
X0.1785 Y10.62
Y10.6217
X0.1784 Y10.6233
X0.1783 Y10.625
X0.1782 Y10.6266
X0.1781 Y10.6283
X0.1779 Y10.6299
X0.1777 Y10.6315
X0.1774 Y10.6331
X0.1771 Y10.6347
X0.1768 Y10.6363
X0.1764 Y10.6379
X0.1759 Y10.6394
X0.1753 Y10.6409
X0.1747 Y10.6424
X0.1741 Y10.6439
X0.1733 Y10.6454
X0.1726 Y10.6469
X0.1718 Y10.6483
X0.171 Y10.6498
X0.1702 Y10.6512
X0.1685 Y10.6541
X0.1677 Y10.655
X0.1669 Y10.6558
X0.1652 Y10.6575
X0.1643 Y10.6583
X0.1634 Y10.6591
X0.1625 Y10.6598
X0.1616 Y10.6606
X0.1607 Y10.6613
X0.1597 Y10.6619
X0.1588 Y10.6625
X0.1578 Y10.663
X0.1567 Y10.6635
X0.1557 Y10.6639
X0.1546 Y10.6643
X0.1524 Y10.6649
X0.1501 Y10.6654
X0.1489 Y10.6656
X0.1442 Y10.6662
X0.1418 Y10.6659
X0.1382 Y10.6653
X0.1358 Y10.6648
X0.1347 Y10.6645
X0.1335 Y10.6642
X0.1324 Y10.6638
X0.1314 Y10.6633
X0.1303 Y10.6628
X0.1293 Y10.6623
X0.1283 Y10.6617
X0.1273 Y10.661
X0.1264 Y10.6603
X0.1255 Y10.6596
X0.1245 Y10.6588
X0.1236 Y10.658
X0.1228 Y10.6572
X0.121 Y10.6554
X0.1193 Y10.6537
X0.1176 Y10.6509
X0.116 Y10.6482
X0.1144 Y10.6454
X0.1137 Y10.6439
X0.113 Y10.6425
X0.1124 Y10.641
X0.1118 Y10.6396
X0.1113 Y10.6381
X0.1109 Y10.6366
X0.1105 Y10.635
X0.1102 Y10.6335
X0.1099 Y10.632
X0.1096 Y10.6304
X0.1095 Y10.6288
X0.1093 Y10.6272
X0.1092 Y10.6256
X0.1091 Y10.624
X0.109 Y10.6224
X0.1089 Y10.6207
X0.1088 Y10.6175
Y10.6146
Y10.6131
X0.1089 Y10.6117
Y10.6102
X0.109 Y10.6088
Y10.6073
X0.1091 Y10.6059
X0.1093 Y10.6044
X0.1094 Y10.603
X0.1096 Y10.6016
X0.1098 Y10.6002
X0.1101 Y10.5988
X0.1104 Y10.5974
X0.1107 Y10.596
X0.1111 Y10.5946
X0.1115 Y10.5933
X0.112 Y10.5919
X0.1125 Y10.5906
X0.113 Y10.5892
X0.1135 Y10.5878
X0.114 Y10.5865
X0.1151 Y10.5838
X0.116 Y10.5826
X0.1178 Y10.5802
X0.1187 Y10.5791
X0.1196 Y10.578
X0.1206 Y10.5769
X0.1215 Y10.5758
X0.1225 Y10.5748
X0.1236 Y10.5739
X0.1246 Y10.573
Z0.1975
G0 Z0.2
X0.2196 Y10.6165
Z0.1975
G1 Z-0.0075 F50
X0.2199 Y10.6215
X0.22 Y10.624
X0.2202 Y10.6265
X0.2204 Y10.629
X0.2207 Y10.6314
X0.221 Y10.6339
X0.2214 Y10.6363
X0.2218 Y10.6386
X0.2224 Y10.641
X0.223 Y10.6433
X0.2237 Y10.6456
X0.2246 Y10.6478
X0.2256 Y10.6499
X0.2267 Y10.652
X0.2278 Y10.6541
X0.2291 Y10.6562
X0.2305 Y10.6582
X0.2319 Y10.6602
X0.2334 Y10.6621
X0.2349 Y10.6641
X0.2365 Y10.666
X0.2381 Y10.668
X0.2397 Y10.6699
X0.2442 Y10.6731
X0.2473 Y10.6751
X0.2505 Y10.677
X0.2521 Y10.6779
X0.2537 Y10.6787
X0.2553 Y10.6795
X0.257 Y10.6802
X0.2587 Y10.6808
X0.2604 Y10.6814
X0.2621 Y10.6819
X0.2657 Y10.6827
X0.2675 Y10.683
X0.2711 Y10.6835
X0.2748 Y10.6839
X0.2767 Y10.684
X0.2786 Y10.6841
X0.2804 Y10.6843
X0.2845 Y10.6839
X0.2886 Y10.6835
X0.2906 Y10.6833
X0.2926 Y10.683
X0.2946 Y10.6827
X0.2966 Y10.6823
X0.2985 Y10.6819
X0.3004 Y10.6814
X0.3023 Y10.6808
X0.3042 Y10.6801
X0.306 Y10.6793
X0.3077 Y10.6785
X0.3095 Y10.6776
X0.3112 Y10.6765
X0.3128 Y10.6755
X0.3145 Y10.6743
X0.3161 Y10.6731
X0.3178 Y10.6719
X0.321 Y10.6694
X0.3225 Y10.6681
X0.3241 Y10.6667
X0.3254 Y10.665
X0.3268 Y10.6631
X0.3281 Y10.6614
X0.3293 Y10.6596
X0.3306 Y10.6577
X0.3317 Y10.6559
X0.3329 Y10.654
X0.3339 Y10.6521
X0.3349 Y10.6502
X0.3359 Y10.6483
X0.3367 Y10.6463
X0.3374 Y10.6443
X0.3381 Y10.6423
X0.3386 Y10.6402
X0.3391 Y10.6381
X0.3395 Y10.6359
X0.3398 Y10.6338
X0.3401 Y10.6317
X0.3403 Y10.6294
X0.3405 Y10.6272
X0.3407 Y10.625
X0.3408 Y10.6228
X0.341 Y10.6206
X0.3411 Y10.6183
X0.341 Y10.615
Y10.6133
X0.3409 Y10.6116
Y10.6099
X0.3408 Y10.6082
X0.3407 Y10.6065
X0.3405 Y10.6048
X0.3404 Y10.6031
X0.3402 Y10.6015
X0.3399 Y10.5998
X0.3397 Y10.5982
X0.3393 Y10.5965
X0.339 Y10.5949
X0.3386 Y10.5933
X0.3381 Y10.5917
X0.3376 Y10.5901
X0.3371 Y10.5885
X0.3366 Y10.5869
X0.336 Y10.5853
X0.3348 Y10.5821
X0.3336 Y10.579
X0.3329 Y10.5778
X0.3322 Y10.5767
X0.3315 Y10.5756
X0.3308 Y10.5745
X0.33 Y10.5734
X0.3293 Y10.5723
X0.3285 Y10.5712
X0.3277 Y10.5702
X0.3269 Y10.5691
X0.3261 Y10.5681
X0.3252 Y10.5672
X0.3243 Y10.5662
X0.3234 Y10.5653
X0.3224 Y10.5644
X0.3215 Y10.5635
X0.3204 Y10.5627
X0.3194 Y10.5619
X0.3183 Y10.5611
X0.3173 Y10.5604
X0.3151 Y10.5589
X0.314 Y10.5581
X0.3129 Y10.5574
X0.3117 Y10.5567
X0.3105 Y10.5561
X0.3093 Y10.5556
X0.308 Y10.555
X0.3055 Y10.5539
X0.3017 Y10.5523
X0.2992 Y10.5515
X0.2979 Y10.5511
X0.2966 Y10.5507
X0.2953 Y10.5504
X0.2913 Y10.5497
X0.2886 Y10.5494
X0.2845 Y10.549
X0.2804 Y10.5488
X0.2742 Y10.5493
X0.2722 Y10.5494
X0.2702 Y10.5497
X0.2681 Y10.55
X0.2661 Y10.5503
X0.2642 Y10.5507
X0.2622 Y10.5511
X0.2603 Y10.5516
X0.2584 Y10.5522
X0.2565 Y10.5528
X0.2547 Y10.5536
X0.2529 Y10.5544
X0.2512 Y10.5554
X0.2495 Y10.5564
X0.2478 Y10.5575
X0.2461 Y10.5586
X0.2445 Y10.5598
X0.2428 Y10.5611
X0.2412 Y10.5623
X0.2364 Y10.5662
X0.2351 Y10.5681
X0.2338 Y10.57
X0.2325 Y10.5719
X0.2312 Y10.5737
X0.2299 Y10.5757
X0.2288 Y10.5776
X0.2276 Y10.5795
X0.2265 Y10.5815
X0.2256 Y10.5835
X0.2246 Y10.5855
X0.2238 Y10.5876
X0.2231 Y10.5896
X0.2225 Y10.5918
X0.2219 Y10.5939
X0.2215 Y10.5961
X0.2211 Y10.5983
X0.2208 Y10.6005
X0.2205 Y10.6028
X0.2203 Y10.605
X0.2201 Y10.6073
X0.22 Y10.6096
X0.2198 Y10.6119
X0.2196 Y10.6165
Z0.1975
G0 Z0.2
X0.2422
Z0.1975
G1 Z-0.0075 F50
X0.2423 Y10.6131
X0.2424 Y10.6115
X0.2425 Y10.6098
X0.2426 Y10.6081
X0.2427 Y10.6065
X0.2429 Y10.6048
X0.243 Y10.6032
X0.2433 Y10.6016
X0.2436 Y10.6
X0.2439 Y10.5984
X0.2443 Y10.5968
X0.2448 Y10.5953
X0.2453 Y10.5937
X0.2459 Y10.5922
X0.2465 Y10.5907
X0.2472 Y10.5893
X0.248 Y10.5878
X0.2488 Y10.5863
X0.2496 Y10.5849
X0.2513 Y10.582
X0.2531 Y10.5792
X0.254 Y10.5783
X0.255 Y10.5774
X0.256 Y10.5765
X0.258 Y10.5748
X0.259 Y10.574
X0.26 Y10.5732
X0.261 Y10.5724
X0.2621 Y10.5717
X0.2631 Y10.5711
X0.2642 Y10.5705
X0.2653 Y10.5699
X0.2665 Y10.5694
X0.2677 Y10.569
X0.2689 Y10.5687
X0.2714 Y10.568
X0.2726 Y10.5678
X0.2752 Y10.5674
X0.2778 Y10.5671
X0.2804 Y10.5669
X0.2817 Y10.567
X0.283 Y10.5671
X0.2843 Y10.5672
X0.2856 Y10.5674
X0.2869 Y10.5676
X0.2895 Y10.5681
X0.2907 Y10.5683
X0.2919 Y10.5687
X0.2931 Y10.5691
X0.2943 Y10.5695
X0.2954 Y10.57
X0.2966 Y10.5705
X0.2977 Y10.5711
X0.2987 Y10.5718
X0.2998 Y10.5725
X0.3008 Y10.5733
X0.3018 Y10.5741
X0.3038 Y10.5757
X0.3048 Y10.5766
X0.3057 Y10.5775
X0.3076 Y10.5793
X0.3085 Y10.5807
X0.3094 Y10.5822
X0.3103 Y10.5836
X0.3112 Y10.5851
X0.312 Y10.5866
X0.3128 Y10.588
X0.3135 Y10.5895
X0.3142 Y10.591
X0.3149 Y10.5926
X0.3155 Y10.5941
X0.316 Y10.5956
X0.3165 Y10.5972
X0.3169 Y10.5988
X0.3172 Y10.6004
X0.3175 Y10.6021
X0.3177 Y10.6037
X0.3179 Y10.6054
X0.3181 Y10.607
X0.3182 Y10.6087
X0.3183 Y10.6104
X0.3184 Y10.6121
Y10.6138
X0.3185 Y10.6172
X0.3184 Y10.6206
X0.3183 Y10.6222
X0.3182 Y10.6238
X0.3181 Y10.6254
X0.318 Y10.6271
X0.3178 Y10.6287
X0.3176 Y10.6303
X0.3174 Y10.6319
X0.3171 Y10.6334
X0.3168 Y10.635
X0.3164 Y10.6365
X0.3159 Y10.638
X0.3154 Y10.6395
X0.3148 Y10.641
X0.3141 Y10.6425
X0.3134 Y10.6439
X0.3127 Y10.6453
X0.3119 Y10.6467
X0.3111 Y10.6482
X0.3093 Y10.6509
X0.3076 Y10.6537
X0.3066 Y10.6546
X0.3057 Y10.6555
X0.3047 Y10.6564
X0.3037 Y10.6572
X0.3018 Y10.6589
X0.3007 Y10.6597
X0.2997 Y10.6604
X0.2987 Y10.6611
X0.2976 Y10.6618
X0.2965 Y10.6624
X0.2954 Y10.663
X0.2943 Y10.6634
X0.2931 Y10.6639
X0.2919 Y10.6643
X0.2907 Y10.6646
X0.2894 Y10.6648
X0.2869 Y10.6653
X0.2856 Y10.6655
X0.283 Y10.6658
X0.2804 Y10.6661
X0.2778 Y10.6658
X0.2752 Y10.6655
X0.2726 Y10.6651
X0.2714 Y10.6649
X0.2701 Y10.6646
X0.2689 Y10.6643
X0.2665 Y10.6635
X0.2654 Y10.663
X0.2642 Y10.6624
X0.2631 Y10.6619
X0.2621 Y10.6612
X0.261 Y10.6605
X0.26 Y10.6597
X0.259 Y10.6589
X0.258 Y10.6582
X0.256 Y10.6564
X0.255 Y10.6556
X0.2531 Y10.6537
X0.2513 Y10.6509
X0.2504 Y10.6495
X0.2496 Y10.6481
X0.2488 Y10.6467
X0.248 Y10.6452
X0.2472 Y10.6437
X0.2465 Y10.6422
X0.2459 Y10.6408
X0.2453 Y10.6393
X0.2448 Y10.6378
X0.2443 Y10.6362
X0.2439 Y10.6346
X0.2436 Y10.633
X0.2433 Y10.6314
X0.243 Y10.6298
X0.2428 Y10.6282
X0.2427 Y10.6265
X0.2426 Y10.6249
X0.2425 Y10.6232
X0.2424 Y10.6215
X0.2423 Y10.6199
X0.2422 Y10.6165
Z0.1975
G0 Z0.2
X0.3548 Y10.6643
Z0.1975
G1 Z-0.0075 F50
Y10.6813
X0.3709
Y10.7134
X0.3927 Y10.7266
Y10.6813
X0.4148
Y10.6643
X0.3927
Y10.5884
Y10.5864
Y10.5849
X0.3928 Y10.5839
Y10.5828
X0.3929 Y10.5819
Y10.5813
X0.393 Y10.5808
X0.3932 Y10.5798
Y10.5793
X0.3936 Y10.5778
X0.3939 Y10.5763
X0.3941 Y10.5759
X0.3942 Y10.5757
X0.3944 Y10.5755
X0.3945 Y10.5753
X0.3947 Y10.5749
X0.3951 Y10.5743
X0.3953 Y10.5741
X0.3954 Y10.5739
X0.3956 Y10.5737
X0.3959 Y10.5734
X0.3965 Y10.573
X0.3969 Y10.5726
X0.3971 Y10.5725
X0.3973 Y10.5724
X0.3975 Y10.5722
X0.3977 Y10.5721
X0.398 Y10.572
X0.3983 Y10.5718
X0.4001 Y10.5711
X0.4013 Y10.5708
X0.4019 Y10.5707
X0.4023 Y10.5706
X0.4026
X0.4032
X0.4039
X0.4042 Y10.5705
X0.406
X0.4064 Y10.5706
X0.4068
X0.4072
X0.4076
X0.408
X0.4084
X0.4092 Y10.5707
X0.4096
X0.4108 Y10.5708
X0.4112 Y10.5709
X0.4128 Y10.5711
X0.4132
X0.4136 Y10.5712
X0.414 Y10.5713
X0.4148
X0.418 Y10.5519
X0.4166 Y10.5517
X0.4159 Y10.5515
X0.4111 Y10.5507
X0.4077 Y10.5503
X0.4021 Y10.55
X0.4006
X0.3998
X0.399
X0.3958 Y10.5502
X0.3934 Y10.5504
X0.3926 Y10.5506
X0.3911 Y10.5509
X0.3896 Y10.5513
X0.388 Y10.5517
X0.3851 Y10.5528
X0.3828 Y10.5538
X0.3814 Y10.5547
X0.3809 Y10.5551
X0.3804 Y10.5554
X0.3795 Y10.5561
X0.3786 Y10.5568
X0.3782 Y10.5572
X0.3778 Y10.5576
X0.3774 Y10.558
X0.377 Y10.5584
X0.3766 Y10.5589
X0.3763 Y10.5593
X0.3759 Y10.5598
X0.3756 Y10.5602
X0.375 Y10.5612
X0.3744 Y10.5622
X0.3736 Y10.5637
X0.3728 Y10.5669
X0.3726 Y10.568
X0.3723 Y10.5691
X0.3721 Y10.5701
X0.3719 Y10.5712
X0.3717 Y10.5722
X0.3715 Y10.5733
X0.3714 Y10.5744
X0.3713 Y10.5755
X0.3712 Y10.5766
X0.3711 Y10.5776
X0.371 Y10.5787
Y10.5798
X0.3709 Y10.5809
Y10.582
Y10.5831
X0.3708 Y10.5853
X0.3709 Y10.5875
Y10.5896
Y10.6643
X0.3548
Z0.1975
G0 Z0.2
X0.4364 Y10.5776
Z0.1975
G1 Z-0.0075 F50
Y10.6813
X0.4584
Y10.5517
X0.4364
Y10.5776
Z0.1975
G0 Z0.2
X0.4918 Y10.5814
Z0.1975
G1 Z-0.0075 F50
X0.4908 Y10.5833
X0.4899 Y10.5854
X0.4892 Y10.5874
X0.4885 Y10.5894
X0.4879 Y10.5916
X0.4874 Y10.5937
X0.4869 Y10.5959
X0.4865 Y10.598
X0.4862 Y10.6002
X0.486 Y10.6025
X0.4858 Y10.6047
X0.4856 Y10.607
X0.4855 Y10.6092
X0.4853 Y10.6115
X0.4852 Y10.6137
X0.4851 Y10.616
X0.4852 Y10.6192
X0.4853 Y10.6207
X0.4854 Y10.6223
X0.4855 Y10.6239
X0.4856 Y10.6255
X0.4857 Y10.627
X0.4858 Y10.6286
X0.486 Y10.6302
X0.4862 Y10.6317
X0.4864 Y10.6332
X0.4867 Y10.6348
X0.487 Y10.6363
X0.4873 Y10.6378
X0.4877 Y10.6393
X0.4881 Y10.6409
X0.4886 Y10.6424
X0.489 Y10.6439
X0.4895 Y10.6454
X0.49 Y10.6469
X0.4916 Y10.6513
X0.4921 Y10.6528
X0.4934 Y10.6552
X0.4947 Y10.6576
X0.4953 Y10.6587
X0.496 Y10.6599
X0.4967 Y10.661
X0.4975 Y10.6622
X0.4982 Y10.6633
X0.499 Y10.6643
X0.4998 Y10.6654
X0.5007 Y10.6664
X0.5016 Y10.6673
X0.5025 Y10.6683
X0.5035 Y10.6692
X0.5045 Y10.67
X0.5056 Y10.6709
X0.5066 Y10.6717
X0.5077 Y10.6725
X0.5088 Y10.6733
X0.511 Y10.6749
X0.5133 Y10.6764
X0.5157 Y10.6776
X0.5194 Y10.6792
X0.5219 Y10.6802
X0.5244 Y10.6812
X0.5257 Y10.6816
X0.5282 Y10.6823
X0.5295 Y10.6826
X0.5308 Y10.6829
X0.5321 Y10.6831
X0.5335 Y10.6833
X0.5375 Y10.6838
X0.5388 Y10.6839
X0.5402 Y10.684
X0.5442 Y10.6843
X0.5489 Y10.684
X0.552 Y10.6838
X0.5535 Y10.6836
X0.5565 Y10.6832
X0.558 Y10.683
X0.561 Y10.6823
X0.5639 Y10.6815
X0.5667 Y10.6804
X0.5681 Y10.6797
X0.5694 Y10.6791
X0.5708 Y10.6783
X0.5721 Y10.6776
X0.5761 Y10.6752
X0.5788 Y10.6736
X0.5809 Y10.6715
X0.5819 Y10.6704
X0.583 Y10.6693
X0.584 Y10.6682
X0.585 Y10.6671
X0.586 Y10.666
X0.5869 Y10.6648
X0.5878 Y10.6637
X0.5886 Y10.6625
X0.5894 Y10.6613
X0.5901 Y10.66
X0.5908 Y10.6587
X0.5915 Y10.6574
X0.592 Y10.6561
X0.5926 Y10.6547
X0.5931 Y10.6533
X0.5936 Y10.6519
X0.594 Y10.6505
X0.5944 Y10.6491
X0.5948 Y10.6476
X0.5956 Y10.6447
X0.596 Y10.6433
X0.5746 Y10.64
X0.5744 Y10.6409
X0.5741 Y10.6418
X0.5736 Y10.6437
X0.5733 Y10.6446
X0.573 Y10.6455
X0.5727 Y10.6464
X0.572 Y10.6482
X0.5712 Y10.6498
X0.5708 Y10.6507
X0.5703 Y10.6515
X0.5698 Y10.6523
X0.5693 Y10.6531
X0.5688 Y10.6538
X0.5682 Y10.6546
X0.5676 Y10.6553
X0.567 Y10.6561
X0.5664 Y10.6568
X0.5651 Y10.6582
X0.5638 Y10.6596
X0.5631 Y10.6601
X0.5603 Y10.662
X0.5588 Y10.6629
X0.5573 Y10.6637
X0.5566 Y10.664
X0.5558 Y10.6643
X0.5543 Y10.6649
X0.5535 Y10.6651
X0.5527 Y10.6653
X0.5518 Y10.6655
X0.5493 Y10.6658
X0.5485 Y10.6659
X0.5476 Y10.666
X0.5468 Y10.6661
X0.5451 Y10.6662
X0.5425 Y10.666
X0.5387 Y10.6655
X0.5374 Y10.6653
X0.5349 Y10.6648
X0.5337 Y10.6645
X0.5325 Y10.6642
X0.5314 Y10.6638
X0.5302 Y10.6633
X0.5291 Y10.6628
X0.528 Y10.6622
X0.527 Y10.6616
X0.5259 Y10.6609
X0.5249 Y10.6602
X0.5239 Y10.6594
X0.5229 Y10.6586
X0.521 Y10.6569
X0.519 Y10.6552
X0.5181 Y10.6543
X0.5172 Y10.6529
X0.5164 Y10.6514
X0.5147 Y10.6485
X0.5139 Y10.6471
X0.5131 Y10.6456
X0.5124 Y10.6441
X0.5117 Y10.6426
X0.5111 Y10.6411
X0.5105 Y10.6396
X0.51 Y10.638
X0.5096 Y10.6365
X0.5092 Y10.6349
X0.5089 Y10.6333
X0.5086 Y10.6317
X0.5084 Y10.63
X0.5082 Y10.6284
X0.5081 Y10.6267
X0.508 Y10.625
X0.5079 Y10.6234
X0.5078 Y10.6217
Y10.6183
X0.5077 Y10.6167
X0.5078 Y10.6133
Y10.6116
X0.5079 Y10.6099
X0.508 Y10.6082
X0.5081 Y10.6065
X0.5082 Y10.6048
X0.5084 Y10.6032
X0.5086 Y10.6016
X0.5088 Y10.5999
X0.5091 Y10.5983
X0.5095 Y10.5967
X0.5099 Y10.5952
X0.5104 Y10.5936
X0.5109 Y10.592
X0.5115 Y10.5905
X0.5122 Y10.589
X0.5129 Y10.5875
X0.5136 Y10.586
X0.5144 Y10.5845
X0.5152 Y10.5831
X0.5161 Y10.5816
X0.5169 Y10.5801
X0.5177 Y10.5787
X0.5205 Y10.5761
X0.5224 Y10.5744
X0.5233 Y10.5736
X0.5243 Y10.5729
X0.5253 Y10.5722
X0.5263 Y10.5715
X0.5273 Y10.5708
X0.5283 Y10.5702
X0.5294 Y10.5697
X0.5305 Y10.5693
X0.5316 Y10.5689
X0.5328 Y10.5685
X0.5352 Y10.568
X0.5364 Y10.5677
X0.5376 Y10.5675
X0.5401 Y10.5672
X0.5439 Y10.5669
X0.5449
X0.5458 Y10.567
X0.5468 Y10.5671
X0.5478 Y10.5672
X0.5498 Y10.5674
X0.5517 Y10.5677
X0.5527 Y10.5679
X0.5536 Y10.5681
X0.5554 Y10.5687
X0.5563 Y10.5691
X0.5572 Y10.5694
X0.5581 Y10.5699
X0.5598 Y10.5708
X0.5606 Y10.5713
X0.563 Y10.573
X0.5655 Y10.5748
X0.5662 Y10.5757
X0.5669 Y10.5765
X0.5676 Y10.5774
X0.5683 Y10.5783
X0.569 Y10.5793
X0.5697 Y10.5802
X0.5703 Y10.5811
X0.571 Y10.582
X0.5715 Y10.583
X0.5721 Y10.584
X0.5726 Y10.585
X0.5731 Y10.586
X0.5735 Y10.587
X0.5739 Y10.5881
X0.5742 Y10.5891
X0.5746 Y10.5902
X0.5748 Y10.5913
X0.5751 Y10.5924
X0.5756 Y10.5946
X0.576 Y10.5969
X0.5762 Y10.598
X0.5764 Y10.5992
X0.5981 Y10.5964
X0.5973 Y10.5931
X0.5969 Y10.5914
X0.5965 Y10.5898
X0.5961 Y10.5881
X0.5957 Y10.5865
X0.5952 Y10.5849
X0.5947 Y10.5833
X0.5941 Y10.5817
X0.5935 Y10.5802
X0.5929 Y10.5787
X0.5921 Y10.5772
X0.5914 Y10.5758
X0.5905 Y10.5744
X0.5896 Y10.573
X0.5887 Y10.5716
X0.5867 Y10.569
X0.5856 Y10.5677
X0.5845 Y10.5664
X0.5834 Y10.5652
X0.5822 Y10.5639
X0.5811 Y10.5626
X0.5799 Y10.5614
X0.5759 Y10.5586
X0.5745 Y10.5577
X0.5718 Y10.5559
X0.5704 Y10.5551
X0.569 Y10.5543
X0.5676 Y10.5536
X0.5661 Y10.553
X0.5647 Y10.5523
X0.5632 Y10.5518
X0.5617 Y10.5513
X0.5586 Y10.5505
X0.557 Y10.5502
X0.5555 Y10.5499
X0.5539 Y10.5496
X0.5523 Y10.5494
X0.549 Y10.5491
X0.5441 Y10.5488
X0.5381 Y10.5493
X0.536 Y10.5494
X0.5341 Y10.5497
X0.5321 Y10.55
X0.5301 Y10.5503
X0.5282 Y10.5506
X0.5244 Y10.5516
X0.5226 Y10.5522
X0.5208 Y10.5528
X0.519 Y10.5536
X0.5173 Y10.5544
X0.5156 Y10.5554
X0.5139 Y10.5564
X0.5123 Y10.5575
X0.5107 Y10.5586
X0.5091 Y10.5598
X0.5075 Y10.561
X0.5044 Y10.5635
X0.5029 Y10.5648
X0.5013 Y10.5662
X0.5 Y10.568
X0.4987 Y10.5699
X0.4975 Y10.5718
X0.4963 Y10.5737
X0.4951 Y10.5756
X0.4939 Y10.5775
X0.4928 Y10.5794
X0.4918 Y10.5814
Z0.1975
G0 Z0.2
X0.6081 Y10.5904
Z0.1975
G1 Z-0.0075 F50
X0.6298 Y10.5938
X0.6302 Y10.5919
X0.6306 Y10.59
X0.6308 Y10.5891
X0.631 Y10.5881
X0.6313 Y10.5872
X0.6316 Y10.5863
X0.6319 Y10.5854
X0.6322 Y10.5845
X0.6326 Y10.5837
X0.633 Y10.5828
X0.6334 Y10.582
X0.6339 Y10.5812
X0.6344 Y10.5804
X0.6349 Y10.5796
X0.6355 Y10.5789
X0.6361 Y10.5781
X0.6367 Y10.5774
X0.6374 Y10.5767
X0.638 Y10.5759
X0.6393 Y10.5745
X0.64 Y10.5738
X0.6418 Y10.5727
X0.6427 Y10.5722
X0.6436 Y10.5716
X0.6454 Y10.5706
X0.6463 Y10.5701
X0.6472 Y10.5697
X0.6491 Y10.5689
X0.6501 Y10.5685
X0.652 Y10.568
X0.654 Y10.5676
X0.655 Y10.5674
X0.6581 Y10.5671
X0.6592 Y10.567
X0.6602
X0.6634 Y10.5669
X0.6644
X0.6684 Y10.567
X0.6703 Y10.5672
X0.6723 Y10.5674
X0.6733 Y10.5676
X0.6742 Y10.5678
X0.6761 Y10.5682
X0.6779 Y10.5689
X0.6797 Y10.5696
X0.6815 Y10.5705
X0.6824 Y10.571
X0.6832 Y10.5715
X0.6841 Y10.572
X0.6858 Y10.573
X0.6868 Y10.574
X0.6873 Y10.5745
X0.6878 Y10.575
X0.6883 Y10.5755
X0.6888 Y10.5761
X0.6892 Y10.5766
X0.6897 Y10.5771
X0.6901 Y10.5777
X0.6905 Y10.5782
X0.6908 Y10.5788
X0.6912 Y10.5794
X0.6915 Y10.58
X0.6917 Y10.5806
X0.6919 Y10.5813
X0.6921 Y10.5819
X0.6923 Y10.5826
X0.6925 Y10.5833
X0.6926 Y10.584
X0.6927 Y10.5846
X0.693 Y10.5861
X0.6931 Y10.5875
X0.6929 Y10.5893
X0.6927 Y10.5904
X0.6925 Y10.5916
X0.6923 Y10.5921
X0.6922 Y10.5926
X0.692 Y10.5932
X0.6917 Y10.5937
X0.6915 Y10.5942
X0.6912 Y10.5947
X0.6905 Y10.5956
X0.6902 Y10.596
X0.6898 Y10.5964
X0.6894 Y10.5969
X0.6889 Y10.5972
X0.6881 Y10.598
X0.6871 Y10.5988
X0.6867 Y10.5992
X0.6858 Y10.5996
X0.6812 Y10.6016
X0.6785 Y10.6026
X0.6757 Y10.6036
X0.6747 Y10.6039
X0.6738 Y10.6042
X0.6728 Y10.6044
X0.6719 Y10.6047
X0.6709 Y10.605
X0.67 Y10.6052
X0.669 Y10.6055
X0.6652 Y10.6064
X0.6642 Y10.6066
X0.6628 Y10.607
X0.6614 Y10.6074
X0.6571 Y10.6084
X0.6557 Y10.6088
X0.6543 Y10.6092
X0.65 Y10.6104
X0.6444 Y10.6121
X0.6417 Y10.613
X0.6403 Y10.6135
X0.6389 Y10.614
X0.6375 Y10.6145
X0.6362 Y10.6151
X0.6334 Y10.6161
X0.6307 Y10.6172
X0.63 Y10.6176
X0.6279 Y10.6187
X0.6272 Y10.6191
X0.6259 Y10.62
X0.6252 Y10.6204
X0.6246 Y10.6209
X0.6239 Y10.6213
X0.6233 Y10.6218
X0.6227 Y10.6223
X0.6221 Y10.6228
X0.6216 Y10.6234
X0.621 Y10.6239
X0.6205 Y10.6245
X0.6194 Y10.6257
X0.6185 Y10.627
X0.617 Y10.6289
X0.6165 Y10.6295
X0.6158 Y10.6309
X0.6155 Y10.6316
X0.6151 Y10.6322
X0.6148 Y10.633
X0.6145 Y10.6336
X0.6142 Y10.6343
X0.6139 Y10.635
X0.6136 Y10.6357
X0.6134 Y10.6365
X0.6131 Y10.6372
X0.6129 Y10.6379
X0.6127 Y10.6386
X0.6126 Y10.6393
X0.6124 Y10.6401
X0.6123 Y10.6408
X0.6122 Y10.6416
X0.6121 Y10.6423
X0.612 Y10.6431
X0.6119 Y10.6439
X0.6118 Y10.6454
X0.6117 Y10.6469
X0.6118 Y10.6483
X0.6119 Y10.6497
X0.612 Y10.6504
Y10.6511
X0.6121 Y10.6518
X0.6122 Y10.6525
X0.6123 Y10.6531
X0.6124 Y10.6539
X0.6125 Y10.6545
X0.6127 Y10.6552
X0.6129 Y10.6559
X0.6131 Y10.6565
X0.6135 Y10.6578
X0.614 Y10.6591
X0.6143 Y10.6598
X0.6145 Y10.6604
X0.6148 Y10.6611
X0.6157 Y10.663
X0.6171 Y10.6653
X0.6175 Y10.6659
X0.6179 Y10.6665
X0.6183 Y10.667
X0.6187 Y10.6676
X0.6195 Y10.6687
X0.6199 Y10.6692
X0.6204 Y10.6697
X0.6208 Y10.6702
X0.6213 Y10.6707
X0.6218 Y10.6712
X0.6223 Y10.6717
X0.6228 Y10.6721
X0.6233 Y10.6726
X0.6238 Y10.673
X0.6244 Y10.6735
X0.6265 Y10.6752
X0.627 Y10.6756
X0.6276 Y10.6759
X0.6287 Y10.6766
X0.6309 Y10.6779
X0.6315 Y10.6782
X0.632 Y10.6785
X0.6326 Y10.6788
X0.6332 Y10.679
X0.6338 Y10.6793
X0.6362 Y10.6802
X0.6374 Y10.6806
X0.638 Y10.6809
X0.6405 Y10.6817
X0.6428 Y10.6822
X0.6436 Y10.6824
X0.6444 Y10.6826
X0.6451 Y10.6828
X0.6459 Y10.683
X0.6475 Y10.6833
X0.6483 Y10.6834
X0.6491 Y10.6835
X0.6499 Y10.6837
X0.653 Y10.684
X0.6538
X0.6546 Y10.6841
X0.6562 Y10.6842
X0.657
X0.6586 Y10.6843
X0.6606
X0.6629 Y10.6842
X0.664 Y10.6841
X0.6663 Y10.684
X0.6674 Y10.6839
X0.6686 Y10.6838
X0.6697 Y10.6837
X0.6708 Y10.6836
X0.6719 Y10.6835
X0.6731 Y10.6833
X0.6742 Y10.6831
X0.6775 Y10.6824
X0.6786 Y10.6821
X0.6797 Y10.6818
X0.6808 Y10.6815
X0.6819 Y10.6812
X0.683 Y10.6809
X0.6841 Y10.6806
X0.6852 Y10.6802
X0.6862 Y10.6799
X0.6895 Y10.6785
X0.6903 Y10.6781
X0.6927 Y10.6769
X0.6934 Y10.6765
X0.6942 Y10.6761
X0.6949 Y10.6756
X0.6956 Y10.6752
X0.6963 Y10.6746
X0.697 Y10.6741
X0.6977 Y10.6736
X0.699 Y10.6724
X0.6996 Y10.6718
X0.7009 Y10.6706
X0.7021 Y10.6693
X0.7033 Y10.668
X0.7037 Y10.6672
X0.7047 Y10.6656
X0.7056 Y10.6641
X0.7064 Y10.6625
X0.7072 Y10.6609
X0.7076 Y10.66
X0.7079 Y10.6592
X0.7082 Y10.6584
X0.7085 Y10.6576
X0.7088 Y10.6567
X0.7091 Y10.6558
X0.7093 Y10.655
X0.7095 Y10.6541
X0.7097 Y10.6532
X0.7101 Y10.6515
X0.7105 Y10.6497
X0.7108 Y10.6479
X0.6894 Y10.645
X0.689 Y10.6465
X0.6887 Y10.648
X0.6885 Y10.6487
X0.6883 Y10.6494
X0.6881 Y10.6502
X0.6878 Y10.6509
X0.6876 Y10.6516
X0.6873 Y10.6523
X0.687 Y10.653
X0.6866 Y10.6536
X0.6863 Y10.6543
X0.6859 Y10.6549
X0.6855 Y10.6555
X0.685 Y10.6561
X0.6845 Y10.6567
X0.6841 Y10.6573
X0.683 Y10.6584
X0.682 Y10.6595
X0.6809 Y10.6606
X0.6801 Y10.661
X0.6794 Y10.6615
X0.6771 Y10.6628
X0.6763 Y10.6632
X0.6755 Y10.6635
X0.6747 Y10.6639
X0.6731 Y10.6646
X0.6723 Y10.6648
X0.6715 Y10.6651
X0.6698 Y10.6655
X0.6689 Y10.6656
X0.6681 Y10.6657
X0.6672 Y10.6658
X0.6663 Y10.6659
X0.6655 Y10.666
X0.6646 Y10.6661
X0.661 Y10.6662
X0.6601
X0.6582
X0.6554 Y10.6661
X0.6526 Y10.6658
X0.6516 Y10.6657
X0.6498 Y10.6654
X0.648 Y10.6649
X0.6463 Y10.6644
X0.6445 Y10.6637
X0.642 Y10.6625
X0.6394 Y10.6612
X0.6381 Y10.66
X0.6373 Y10.6592
X0.6368 Y10.6588
X0.6364 Y10.6583
X0.6361 Y10.658
X0.6354 Y10.657
X0.6351 Y10.6566
X0.6348 Y10.6561
X0.6345 Y10.6556
X0.6343 Y10.6551
X0.6341 Y10.6546
X0.6339 Y10.6541
X0.6337 Y10.6535
X0.6336 Y10.653
X0.6333 Y10.6518
X0.6331 Y10.6506
Y10.6501
X0.633 Y10.6495
X0.6331 Y10.6481
X0.6332 Y10.647
X0.6334 Y10.6464
X0.6335 Y10.6457
X0.6336 Y10.6454
X0.6338 Y10.6451
X0.6339 Y10.6448
X0.634 Y10.6444
X0.6342 Y10.6442
X0.6345 Y10.6435
X0.6347 Y10.6433
X0.6349 Y10.643
X0.6351 Y10.6427
X0.6353 Y10.6424
X0.6355 Y10.6421
X0.6356 Y10.6418
X0.6366 Y10.6408
X0.6369 Y10.6406
X0.6375 Y10.6399
X0.6378 Y10.6396
X0.6381 Y10.6393
X0.6384 Y10.6391
X0.6388 Y10.6388
X0.6391 Y10.6385
X0.6402 Y10.6378
X0.6406 Y10.6376
X0.6409 Y10.6374
X0.6421 Y10.6368
X0.6425 Y10.6367
X0.6429 Y10.6365
X0.6433 Y10.6363
X0.6437 Y10.6361
X0.6441 Y10.6359
X0.6449 Y10.6357
X0.6457 Y10.6354
X0.6465 Y10.6352
X0.6481 Y10.6347
X0.6489 Y10.6344
X0.6562 Y10.6323
X0.657 Y10.6321
X0.6586 Y10.6316
X0.6594 Y10.6314
X0.6602 Y10.6312
X0.661 Y10.631
X0.6619 Y10.6307
X0.6627 Y10.6306
X0.6635 Y10.6303
X0.6649 Y10.63
X0.6662 Y10.6296
X0.669 Y10.6289
X0.6704 Y10.6285
X0.6717 Y10.6281
X0.6785 Y10.6261
X0.6799 Y10.6257
X0.6813 Y10.6253
X0.6826 Y10.6249
X0.684 Y10.6244
X0.6853 Y10.624
X0.692 Y10.6216
X0.6933 Y10.6211
X0.6947 Y10.6206
X0.696 Y10.6201
X0.6988 Y10.6187
X0.6995 Y10.6183
X0.7002 Y10.618
X0.7015 Y10.6172
X0.7022 Y10.6167
X0.7028 Y10.6163
X0.7035 Y10.6159
X0.7041 Y10.6154
X0.7047 Y10.6149
X0.7058 Y10.6139
X0.7064 Y10.6133
X0.7069 Y10.6128
X0.7074 Y10.6122
X0.708 Y10.6116
X0.7085 Y10.611
X0.709 Y10.6104
X0.71 Y10.6092
X0.7105 Y10.6086
X0.7109 Y10.6079
X0.7117 Y10.6064
X0.7121 Y10.6057
X0.7124 Y10.6049
X0.7128 Y10.6042
X0.7132 Y10.6034
X0.7135 Y10.6027
X0.7138 Y10.6019
X0.7141 Y10.6011
X0.7143 Y10.6004
X0.7146 Y10.5996
X0.7148 Y10.5988
X0.7149 Y10.598
X0.7151 Y10.5972
X0.7152 Y10.5964
X0.7153 Y10.5956
X0.7154 Y10.5948
X0.7155 Y10.5931
X0.7156 Y10.5915
X0.7157 Y10.5898
X0.7155 Y10.587
X0.7153 Y10.5852
X0.7152 Y10.5843
X0.7151 Y10.5834
X0.7149 Y10.5825
X0.7147 Y10.5816
X0.7146 Y10.5807
X0.7143 Y10.5798
X0.7141 Y10.579
X0.7138 Y10.5781
X0.7135 Y10.5772
X0.7131 Y10.5764
X0.7128 Y10.5756
X0.7124 Y10.5748
X0.712 Y10.5739
X0.7116 Y10.5731
X0.7111 Y10.5723
X0.7107 Y10.5715
X0.7102 Y10.5707
X0.7098 Y10.5699
X0.7093 Y10.5691
X0.7074 Y10.5667
X0.7061 Y10.5652
X0.7055 Y10.5644
X0.7048 Y10.5637
X0.7041 Y10.5629
X0.7034 Y10.5622
X0.7027 Y10.5615
X0.7019 Y10.5609
X0.7012 Y10.5602
X0.7004 Y10.5596
X0.6996 Y10.5591
X0.6988 Y10.5585
X0.6979 Y10.558
X0.6971 Y10.5574
X0.6962 Y10.5569
X0.6953 Y10.5564
X0.6935 Y10.5555
X0.6917 Y10.5545
X0.6908 Y10.5541
X0.6897 Y10.5537
X0.6864 Y10.5525
X0.6831 Y10.5514
X0.6797 Y10.5505
X0.6774 Y10.55
X0.6751 Y10.5496
X0.674 Y10.5494
X0.6717 Y10.5492
X0.667 Y10.5489
X0.6635 Y10.5488
X0.66 Y10.5489
X0.6566 Y10.549
X0.6532 Y10.5493
X0.6515 Y10.5494
X0.6482 Y10.5498
X0.6465 Y10.5501
X0.6449 Y10.5504
X0.6433 Y10.5508
X0.6417 Y10.5513
X0.6401 Y10.5518
X0.6385 Y10.5523
X0.637 Y10.553
X0.6355 Y10.5536
X0.6324 Y10.5551
X0.6309 Y10.5559
X0.6279 Y10.5576
X0.6264 Y10.5584
X0.625 Y10.5593
X0.6228 Y10.5615
X0.6218 Y10.5626
X0.6207 Y10.5637
X0.6197 Y10.5648
X0.6187 Y10.5659
X0.6168 Y10.5682
X0.6159 Y10.5694
X0.6151 Y10.5707
X0.6143 Y10.5719
X0.6136 Y10.5732
X0.6129 Y10.5745
X0.6123 Y10.5759
X0.6118 Y10.5772
X0.6113 Y10.5787
X0.6108 Y10.5801
X0.6103 Y10.5815
X0.6099 Y10.583
X0.6095 Y10.5844
X0.6091 Y10.5859
X0.6084 Y10.5889
X0.6081 Y10.5904
Z0.1975
G0 Z0.2
X0.4584 Y10.7054
Z0.1975
G1 Z-0.0075 F50
X0.4364
Y10.7307
X0.4584
Y10.7054
Z0.1975
G0 Z0.6
M9
G28 G91 Z0
G90
G28 G91 X0 Y0
G90
M30
%
