%
(1001)
(T1  D=0.0625 CR=0.0984 TAPER=5.5deg - ZMIN=0 - tapered mill)
G90
G17
G20
G28 G91 Z0
G90

(circle)
M9
T1 M6
S12000 M3
G54
M7
G0 X5 Y15
Z0.602
Z0.2
G1 Z0 F50
X4.9992 Y15.0893
X4.9968 Y15.1785
X4.9928 Y15.2676
X4.9872 Y15.3567
X4.9801 Y15.4457
X4.9713 Y15.5345
X4.961 Y15.6231
X4.9491 Y15.7116
X4.9356 Y15.7998
X4.9206 Y15.8878
X4.9039 Y15.9754
X4.8857 Y16.0628
X4.866 Y16.1499
X4.8447 Y16.2365
X4.8219 Y16.3228
X4.7975 Y16.4087
X4.7716 Y16.4941
X4.7441 Y16.579
X4.7152 Y16.6634
X4.6848 Y16.7473
X4.6528 Y16.8307
X4.6194 Y16.9134
X4.5845 Y16.9956
X4.5481 Y17.0771
X4.5104 Y17.1579
X4.4711 Y17.2381
X4.4305 Y17.3175
X4.3884 Y17.3963
X4.3449 Y17.4742
X4.3001 Y17.5513
X4.2539 Y17.6277
X4.2063 Y17.7032
X4.1574 Y17.7778
X4.1071 Y17.8516
X4.0556 Y17.9244
X4.0027 Y17.9964
X3.9486 Y18.0674
X3.8932 Y18.1374
X3.8366 Y18.2063
X3.7787 Y18.2743
X3.7197 Y18.3412
X3.6595 Y18.4071
X3.5981 Y18.4719
X3.5355 Y18.5356
X3.4719 Y18.5981
X3.4071 Y18.6595
X3.3412 Y18.7197
X3.2743 Y18.7787
X3.2063 Y18.8366
X3.1373 Y18.8932
X3.0674 Y18.9486
X2.9964 Y19.0027
X2.9245 Y19.0556
X2.8516 Y19.1071
X2.7779 Y19.1574
X2.7032 Y19.2063
X2.6277 Y19.2539
X2.5514 Y19.3001
X2.4742 Y19.3449
X2.3962 Y19.3884
X2.3175 Y19.4305
X2.2381 Y19.4711
X2.1579 Y19.5104
X2.0771 Y19.5482
X1.9956 Y19.5845
X1.9134 Y19.6194
X1.8307 Y19.6528
X1.7473 Y19.6848
X1.6634 Y19.7152
X1.579 Y19.7441
X1.4941 Y19.7716
X1.4087 Y19.7975
X1.3228 Y19.8219
X1.2365 Y19.8447
X1.1499 Y19.866
X1.0628 Y19.8857
X0.9755 Y19.9039
X0.8878 Y19.9206
X0.7998 Y19.9356
X0.7116 Y19.9491
X0.6231 Y19.961
X0.5345 Y19.9713
X0.4457 Y19.9801
X0.3567 Y19.9872
X0.2676 Y19.9928
X0.1785 Y19.9968
X0.0892 Y19.9992
X0 Y20
X-0.0892 Y19.9992
X-0.1785 Y19.9968
X-0.2676 Y19.9928
X-0.3567 Y19.9872
X-0.4457 Y19.9801
X-0.5345 Y19.9713
X-0.6231 Y19.961
X-0.7116 Y19.9491
X-0.7998 Y19.9356
X-0.8878 Y19.9206
X-0.9755 Y19.9039
X-1.0628 Y19.8857
X-1.1499 Y19.866
X-1.2365 Y19.8447
X-1.3228 Y19.8219
X-1.4087 Y19.7975
X-1.4941 Y19.7716
X-1.579 Y19.7441
X-1.6634 Y19.7152
X-1.7473 Y19.6848
X-1.8307 Y19.6528
X-1.9134 Y19.6194
X-1.9956 Y19.5845
X-2.0771 Y19.5482
X-2.1579 Y19.5104
X-2.2381 Y19.4711
X-2.3175 Y19.4305
X-2.3962 Y19.3884
X-2.4742 Y19.3449
X-2.5514 Y19.3001
X-2.6277 Y19.2539
X-2.7032 Y19.2063
X-2.7779 Y19.1574
X-2.8516 Y19.1071
X-2.9245 Y19.0556
X-2.9964 Y19.0027
X-3.0674 Y18.9486
X-3.1373 Y18.8932
X-3.2063 Y18.8366
X-3.2743 Y18.7787
X-3.3412 Y18.7197
X-3.4071 Y18.6595
X-3.4719 Y18.5981
X-3.5355 Y18.5356
X-3.5981 Y18.4719
X-3.6595 Y18.4071
X-3.7197 Y18.3412
X-3.7787 Y18.2743
X-3.8366 Y18.2063
X-3.8932 Y18.1374
X-3.9486 Y18.0674
X-4.0027 Y17.9964
X-4.0556 Y17.9244
X-4.1071 Y17.8516
X-4.1574 Y17.7778
X-4.2063 Y17.7032
X-4.2539 Y17.6277
X-4.3001 Y17.5513
X-4.3449 Y17.4742
X-4.3884 Y17.3963
X-4.4305 Y17.3175
X-4.4711 Y17.2381
X-4.5104 Y17.1579
X-4.5481 Y17.0771
X-4.5845 Y16.9956
X-4.6194 Y16.9134
X-4.6528 Y16.8307
X-4.6848 Y16.7473
X-4.7152 Y16.6634
X-4.7441 Y16.579
X-4.7716 Y16.4941
X-4.7975 Y16.4087
X-4.8219 Y16.3228
X-4.8447 Y16.2365
X-4.866 Y16.1499
X-4.8857 Y16.0628
X-4.9039 Y15.9754
X-4.9206 Y15.8878
X-4.9356 Y15.7998
X-4.9491 Y15.7116
X-4.961 Y15.6231
X-4.9713 Y15.5345
X-4.9801 Y15.4457
X-4.9872 Y15.3567
X-4.9928 Y15.2676
X-4.9968 Y15.1785
X-4.9992 Y15.0893
X-5 Y15
X-4.9992 Y14.9107
X-4.9968 Y14.8215
X-4.9928 Y14.7324
X-4.9872 Y14.6433
X-4.9801 Y14.5543
X-4.9713 Y14.4655
X-4.961 Y14.3769
X-4.9491 Y14.2884
X-4.9356 Y14.2002
X-4.9206 Y14.1122
X-4.9039 Y14.0246
X-4.8857 Y13.9372
X-4.866 Y13.8501
X-4.8447 Y13.7635
X-4.8219 Y13.6772
X-4.7975 Y13.5913
X-4.7716 Y13.5059
X-4.7441 Y13.421
X-4.7152 Y13.3366
X-4.6848 Y13.2527
X-4.6528 Y13.1693
X-4.6194 Y13.0866
X-4.5845 Y13.0044
X-4.5481 Y12.9229
X-4.5104 Y12.8421
X-4.4711 Y12.7619
X-4.4305 Y12.6825
X-4.3884 Y12.6037
X-4.3449 Y12.5258
X-4.3001 Y12.4487
X-4.2539 Y12.3723
X-4.2063 Y12.2968
X-4.1574 Y12.2222
X-4.1071 Y12.1484
X-4.0556 Y12.0756
X-4.0027 Y12.0036
X-3.9486 Y11.9326
X-3.8932 Y11.8626
X-3.8366 Y11.7937
X-3.7787 Y11.7257
X-3.7197 Y11.6588
X-3.6595 Y11.5929
X-3.5981 Y11.5281
X-3.5355 Y11.4644
X-3.4719 Y11.4019
X-3.4071 Y11.3405
X-3.3412 Y11.2803
X-3.2743 Y11.2213
X-3.2063 Y11.1634
X-3.1373 Y11.1068
X-3.0674 Y11.0514
X-2.9964 Y10.9973
X-2.9245 Y10.9444
X-2.8516 Y10.8929
X-2.7779 Y10.8426
X-2.7032 Y10.7937
X-2.6277 Y10.7461
X-2.5514 Y10.6999
X-2.4742 Y10.6551
X-2.3962 Y10.6116
X-2.3175 Y10.5695
X-2.2381 Y10.5289
X-2.1579 Y10.4896
X-2.0771 Y10.4518
X-1.9956 Y10.4155
X-1.9134 Y10.3806
X-1.8307 Y10.3472
X-1.7473 Y10.3152
X-1.6634 Y10.2848
X-1.579 Y10.2559
X-1.4941 Y10.2284
X-1.4087 Y10.2025
X-1.3228 Y10.1781
X-1.2365 Y10.1553
X-1.1499 Y10.134
X-1.0628 Y10.1143
X-0.9755 Y10.0961
X-0.8878 Y10.0794
X-0.7998 Y10.0644
X-0.7116 Y10.0509
X-0.6231 Y10.039
X-0.5345 Y10.0287
X-0.4457 Y10.0199
X-0.3567 Y10.0128
X-0.2676 Y10.0072
X-0.1785 Y10.0032
X-0.0892 Y10.0008
X0 Y10
X0.0892 Y10.0008
X0.1785 Y10.0032
X0.2676 Y10.0072
X0.3567 Y10.0128
X0.4457 Y10.0199
X0.5345 Y10.0287
X0.6231 Y10.039
X0.7116 Y10.0509
X0.7998 Y10.0644
X0.8878 Y10.0794
X0.9755 Y10.0961
X1.0628 Y10.1143
X1.1499 Y10.134
X1.2365 Y10.1553
X1.3228 Y10.1781
X1.4087 Y10.2025
X1.4941 Y10.2284
X1.579 Y10.2559
X1.6634 Y10.2848
X1.7473 Y10.3152
X1.8307 Y10.3472
X1.9134 Y10.3806
X1.9956 Y10.4155
X2.0771 Y10.4518
X2.1579 Y10.4896
X2.2381 Y10.5289
X2.3175 Y10.5695
X2.3962 Y10.6116
X2.4742 Y10.6551
X2.5514 Y10.6999
X2.6277 Y10.7461
X2.7032 Y10.7937
X2.7779 Y10.8426
X2.8516 Y10.8929
X2.9245 Y10.9444
X2.9964 Y10.9973
X3.0674 Y11.0514
X3.1373 Y11.1068
X3.2063 Y11.1634
X3.2743 Y11.2213
X3.3412 Y11.2803
X3.4071 Y11.3405
X3.4719 Y11.4019
X3.5355 Y11.4644
X3.5981 Y11.5281
X3.6595 Y11.5929
X3.7197 Y11.6588
X3.7787 Y11.7257
X3.8366 Y11.7937
X3.8932 Y11.8626
X3.9486 Y11.9326
X4.0027 Y12.0036
X4.0556 Y12.0756
X4.1071 Y12.1484
X4.1574 Y12.2222
X4.2063 Y12.2968
X4.2539 Y12.3723
X4.3001 Y12.4487
X4.3449 Y12.5258
X4.3884 Y12.6037
X4.4305 Y12.6825
X4.4711 Y12.7619
X4.5104 Y12.8421
X4.5481 Y12.9229
X4.5845 Y13.0044
X4.6194 Y13.0866
X4.6528 Y13.1693
X4.6848 Y13.2527
X4.7152 Y13.3366
X4.7441 Y13.421
X4.7716 Y13.5059
X4.7975 Y13.5913
X4.8219 Y13.6772
X4.8447 Y13.7635
X4.866 Y13.8501
X4.8857 Y13.9372
X4.9039 Y14.0246
X4.9206 Y14.1122
X4.9356 Y14.2002
X4.9491 Y14.2884
X4.961 Y14.3769
X4.9713 Y14.4655
X4.9801 Y14.5543
X4.9872 Y14.6433
X4.9928 Y14.7324
X4.9968 Y14.8215
X4.9992 Y14.9107
X5 Y15
Z0.2
G0 Z0.602
M9
G28 G91 Z0
G90
G28 G91 X0 Y0
G90
M30
%
