%
(1001)
(T1  D=0.0625 CR=0.0984 TAPER=5.5deg - ZMIN=-0.0075 - tapered mill)
G90
G17
G20
G28 G91 Z0
G90

(Trace1)
M9
T1 M6
S12000 M3
G54
M7
G0 X2.2526 Y19.1978
Z0.6
Z0.1975
G1 Z-0.0075 F50
X0.0232 Y17.1904
X-1.9842 Y19.4198
X0.2453 Y21.4272
X2.2526 Y19.1978
Z0.1975
G0 Z0.2
X0.0232 Y17.1904
Z0.1975
G1 Z-0.0075 F50
X2.4503 Y18.9538
X4.2136 Y16.5267
X1.7866 Y14.7633
X0.0232 Y17.1904
X1.5232 Y19.7885
X4.1213 Y18.2885
X2.6213 Y15.6904
X0.0232 Y17.1904
X0.3368 Y20.174
X3.3204 Y19.8604
X3.0068 Y16.8768
X0.0232 Y17.1904
X-0.9038 Y20.0436
X1.9493 Y20.9706
X2.8764 Y18.1174
X0.0232 Y17.1904
X-2.7174 Y18.4106
X-1.4972 Y21.1513
X1.2434 Y19.931
X0.0232 Y17.1904
Z0.1975
G0 Z0.2
Y19.9404
Z0.1975
G1 Z-0.0075 F50
Y17.1904
X-2.9768
Y20.1904
X0.0232
Y19.9404
Z0.1975
G0 Z0.2
X-1.0953 Y19.7026
Z0.1975
G1 Z-0.0075 F50
X0.0232 Y17.1904
X-2.7174 Y15.9702
X-3.9376 Y18.7108
X-1.197 Y19.931
X-1.0953 Y19.7026
Z0.1975
G0 Z0.2
X0.0232 Y17.1904
Z0.1975
G1 Z-0.0075 F50
X-1.9842 Y14.961
X-4.2136 Y16.9683
X-2.2062 Y19.1978
X0.0232 Y17.1904
X-0.9038 Y14.3372
X-3.757 Y15.2643
X-2.83 Y18.1174
X0.0232 Y17.1904
X0.3368 Y14.2069
X-2.6468 Y13.8933
X-2.9604 Y16.8768
X0.0232 Y17.1904
X1.5232 Y14.5923
X-1.0749 Y13.0923
X-2.5749 Y15.6904
X0.0232 Y17.1904
X2.4503 Y15.427
X0.6869 Y13
X-1.7401 Y14.7633
X0.0232 Y17.1904
X2.9577 Y17.8141
X3.5814 Y14.8797
X0.6469 Y14.2559
X0.0232 Y17.1904
X2.9577 Y16.5667
X2.3339 Y13.6322
X-0.6005 Y14.2559
X0.0232 Y17.1904
Z0.1975
G0 Z0.6
M9
G28 G91 Z0
G90
G28 G91 X0 Y0
G90
M30
%
